!!!!SEGMENT: s-uu--vok-mus-i-hs-22-2_forster-kaspar--repleta-est-malis-anima-nostra.krn
!!!cenid: 16xx:1706
!!!COM: Förster, Kaspar
!!!COM-rismID: pe30006147
!!!CDT: ~1616-1673/02/02
!!!CNT: German
!!!OTL: Repleta est malis anima nostra
!!!PDT: 1667
!!!AGN:
!!!YEC: Copyright 2022 Narodowy Instytut Fryderyka Chopina (https://polishscores.org)
!!!YEM: License CC-BY-4.0 (https://creativecommons.org/licenses/by/4.0)
!!!SMS-siglum: S-Uu
!!!SMS-shelfmark: Vok. mus. i hs. 22:2
!!!SMS-shelfwork: W
!!!SMS-variant: Organo. S-Uu Vok. mus. i hs. 22:2: ex 1
!!!SMS-altvar: Organo. S-Uu Vok. mus. i hs. 22:2: ex 2
!!!NIFC-rismSourceID: 190008737
!!!NIFC-rismChildID: 190008737
!!!NIFC-islandoraID: none
!!!URL-pdf-islandora:
!!!URL-scan: https://www2.musik.uu.se/duben/presentationSource1.php?Select_Dnr=857 @EN{Scan on Academica} @PL{Skany w zewnętrznej bibliotece cyfrowej}
!!!IIIF:
!!!ONB-nifc: UWAGA: poszczególne partie dostępne po kliknięciu w „browse part”. Informacje nt stron tytułowych w opisie na stronie lub na RISM.
!!!AIN: 1 alto 1 bass 1 organ 1 tenor 2 violn
!!!key: B-
!!!OMD:
!!!OMD-mod: Adagio
**kern	**fba	**dynam	**kern	**dynam	**kern	**dynam	**kern	**text	**mod-text	**kern	**text	**mod-text	**kern	**text	**mod-text
*part6	*	*	*part5	*	*part4	*	*part3	*	*	*part2	*	*	*part1	*	*
*staff6	*	*	*staff5	*	*staff4	*	*staff3	*	*	*staff2	*	*	*staff1	*	*
*I"Organo./.	*	*	*I"Violino II	*	*I"Violino 1.	*	*I"Baſsus./.	*	*	*I"Tenor./.	*	*	*I"Altus	*	*
*mI"Organo	*	*	*	*	*mI"Violino I	*	*mI"Basso	*	*	*mI"Tenore	*	*	*mI"Alto	*	*
*I'org	*	*	*I'vl 2	*	*I'vl 1	*	*I'B	*	*	*I'T	*	*	*I'A	*	*
*Iorgan	*	*	*Ivioln	*	*Ivioln	*	*Ibass	*	*	*Itenor	*	*	*Ialto	*	*
*ICklav	*	*	*ICstr	*	*ICstr	*	*ICvox	*	*	*ICvox	*	*	*ICvox	*	*
*IGcont	*	*	*	*	*	*	*	*	*	*	*	*	*	*	*
*>[A,B,A]	*	*>[A,B,A]	*>[A,B,A]	*>[A,B,A]	*>[A,B,A]	*	*>[A,B,A]	*>[A,B,A]	*>[A,B,A]	*>[A,B,A]	*>[A,B,A]	*>[A,B,A]	*>[A,B,A]	*>[A,B,A]	*>[A,B,A]
*>A	*	*>A	*>A	*>A	*>A	*	*>A	*>A	*>A	*>A	*>A	*>A	*>A	*>A	*>A
*clefF4	*	*	*clefG2	*	*clefG2	*	*clefF4	*	*	*clefC4	*	*	*clefC3	*	*
*	*	*	*	*	*	*	*	*	*	*mclefGv2	*	*	*mclefG2	*	*
*k[b-]	*	*	*k[b-]	*	*k[b-]	*	*k[b-]	*	*	*k[b-]	*	*	*k[b-]	*	*
*B-:	*	*	*B-:	*	*B-:	*	*B-:	*	*	*B-:	*	*	*B-:	*	*
*M2/2	*	*	*M2/2	*	*M2/2	*	*M2/2	*	*	*M2/2	*	*	*M2/2	*	*
*met(c)	*	*	*met(c)	*	*met(c)	*	*met(c)	*	*	*met(c)	*	*	*met(c|)	*	*
*mmet(c)	*	*	*mmet(c)	*	*mmet(c)	*	*mmet(c)	*	*	*mmet(c)	*	*	*mmet(c)	*	*
=1-	=1-	=1-	=1-	=1-	=1-	=1-	=1-	=1-	=1-	=1-	=1-	=1-	=1-	=1-	=1-
*	*	*	*all\right	*	*all\right	*	*	*	*	*	*	*	*	*	*
!LO:TX:b:t=adagio:mod=	!	!	!	!	!	!	!	!	!	!	!	!	!	!	!
!LO:TX:b:rj:t=Sinfonia.:mod=	!	!	!LO:TX:b:t=Sinfonia:mod=	!	!	!	!LO:TX:a:t=Sinfonia\nRepleta\nest\ntacet:mod=	!	!	!LO:TX:a:t=Sinfonia\nAlto Solo\nRepleta est\ntacet:mod=	!	!	!LO:TX:a:t=Sinfonia\ntacet:mod=	!	!
2D/	-	.	4r	.	4r	.	0ryy	.	.	0ryy	.	.	0ryy	.	.
!	!	!	!LO:TX:a:t=adagio:mod=	!	!LO:TX:b:t=adagio:mod=	!	!	!	!	!	!	!	!	!	!
.	.	.	4dd\	.	4ff\	.	.	.	.	.	.	.	.	.	.
2A\	#	.	4.cc#X\	.	4.ee\	.	.	.	.	.	.	.	.	.	.
!	!	!	!LO:TX:t=P:problem:kreska pseudotaktowa	!	!	!	!	!	!	!	!	!	!	!	!
.	.	.	8cc#\	.	8aa\	.	.	.	.	.	.	.	.	.	.
=2-	=2-	=2-	=2-	=2-	=2-	=2-	=2-	=2-	=2-	=2-	=2-	=2-	=2-	=2-	=2-
2B-\	7	.	4.dd\	.	4aa\	.	.	.	.	.	.	.	.	.	.
.	6	.	.	.	4gg\	.	.	.	.	.	.	.	.	.	.
.	.	.	8dd\	.	.	.	.	.	.	.	.	.	.	.	.
!!!OMD:
!!!OMD-mod: Allegro
!LO:TX:b:t=allegro:mod=	!	!	!LO:TX:a:t=allegro:mod=	!	!	!	!	!	!	!	!	!	!	!	!
4.A\	# 5	.	4.cc#X\	.	8aa\L	.	.	.	.	.	.	.	.	.	.
!	!	!	!	!	!LO:TX:b:t=allegro:mod=	!	!	!	!	!	!	!	!	!	!
.	.	.	.	.	8ee\J	.	.	.	.	.	.	.	.	.	.
.	x 6	.	.	.	4.ff\	.	.	.	.	.	.	.	.	.	.
8AA/	.	.	8cc#\	.	.	.	.	.	.	.	.	.	.	.	.
=3-	=3-	=3-	=3-	=3-	=3-	=3-	=3-	=3-	=3-	=3-	=3-	=3-	=3-	=3-	=3-
4.BB-/	.	.	4.dd\	.	.	.	0ryy	.	.	0ryy	.	.	0ryy	.	.
.	.	.	.	.	8ff\	.	.	.	.	.	.	.	.	.	.
.	.	.	.	.	4.gg\	.	.	.	.	.	.	.	.	.	.
8GG/	6	.	16ee\LL	.	.	.	.	.	.	.	.	.	.	.	.
.	.	.	16dd\JJ	.	.	.	.	.	.	.	.	.	.	.	.
!LO:TX:t=P:problem:kreska pseudotaktowa	!	!	!	!	!	!	!	!	!	!	!	!	!	!	!
2AA/	3	.	8cc#X\	.	.	.	.	.	.	.	.	.	.	.	.
.	4	.	4dd\	.	8ff\	.	.	.	.	.	.	.	.	.	.
.	.	.	.	.	8.ee\L	.	.	.	.	.	.	.	.	.	.
!	!	!	!LO:TX:t=P:problem:kreska pseudotaktowa	!	!	!	!	!	!	!	!	!	!	!	!
.	3	.	8cc#X\	.	.	.	.	.	.	.	.	.	.	.	.
!	!	!	!	!	!LO:TX:t=P:problem:kreska pseudotaktowa	!	!	!	!	!	!	!	!	!	!
.	.	.	.	.	16ee\Jk	.	.	.	.	.	.	.	.	.	.
=4-	=4-	=4-	=4-	=4-	=4-	=4-	=4-	=4-	=4-	=4-	=4-	=4-	=4-	=4-	=4-
4.D/	5	.	4.dd\	.	8ff\L	.	.	.	.	.	.	.	.	.	.
.	.	.	.	.	8aa\J	.	.	.	.	.	.	.	.	.	.
.	6 #	.	.	.	4.bb-\	.	.	.	.	.	.	.	.	.	.
8D/	.	.	8ff#X\	.	.	.	.	.	.	.	.	.	.	.	.
4.E-X\	.	.	4.gg\	.	.	.	.	.	.	.	.	.	.	.	.
.	7	.	.	.	8bb-\	.	.	.	.	.	.	.	.	.	.
.	6 5	.	.	.	4.ccc\	.	.	.	.	.	.	.	.	.	.
!	!	!	!LO:TX:t=P:problem:kreska pseudotaktowa	!	!	!	!	!	!	!	!	!	!	!	!
8C/	5 3	.	8ee\	.	.	.	.	.	.	.	.	.	.	.	.
=5-	=5-	=5-	=5-	=5-	=5-	=5-	=5-	=5-	=5-	=5-	=5-	=5-	=5-	=5-	=5-
2D/	.	.	8ff#X\	.	.	.	0ryy	.	.	0ryy	.	.	0ryy	.	.
.	.	.	4gg\	.	8bb-\	.	.	.	.	.	.	.	.	.	.
.	.	.	.	.	8.aa\L	.	.	.	.	.	.	.	.	.	.
!	!	!	!LO:TX:a:t=P:problem:# above	!	!	!	!	!	!	!	!	!	!	!	!
.	.	.	8ff#X\	.	.	.	.	.	.	.	.	.	.	.	.
.	.	.	.	.	16aa\Jk	.	.	.	.	.	.	.	.	.	.
4GG/	.	.	4gg\	.	8bb-\L	.	.	.	.	.	.	.	.	.	.
.	.	.	.	.	8aa\J	.	.	.	.	.	.	.	.	.	.
!	!	!	!LO:TX:t=P:problem:kreska pseudotaktowa	!	!	!	!	!	!	!	!	!	!	!	!
4AA/	6	.	4r	.	8cc\L	.	.	.	.	.	.	.	.	.	.
.	.	.	.	.	16ff\L	.	.	.	.	.	.	.	.	.	.
.	.	.	.	.	16ee\JJ	.	.	.	.	.	.	.	.	.	.
=6-	=6-	=6-	=6-	=6-	=6-	=6-	=6-	=6-	=6-	=6-	=6-	=6-	=6-	=6-	=6-
4BB-/	.	.	8r	.	4dd\	.	.	.	.	.	.	.	.	.	.
.	.	.	8dd\	.	.	.	.	.	.	.	.	.	.	.	.
8E-X\L	6	.	8g/L	.	4r	.	.	.	.	.	.	.	.	.	.
!LO:N:acc=#	!	!	!	!	!	!	!	!	!	!	!	!	!	!	!
8En\J	.	.	16ccny/L	.	.	.	.	.	.	.	.	.	.	.	.
.	.	.	16b-/JJ	.	.	.	.	.	.	.	.	.	.	.	.
4F\	.	.	4a/	.	8r	.	.	.	.	.	.	.	.	.	.
.	.	.	.	.	8ff\	.	.	.	.	.	.	.	.	.	.
!	!	!	!LO:TX:t=P:problem:kreska pseudotaktowa	!	!LO:N:acc=#	!	!	!	!	!	!	!	!	!	!
4G\	#	.	4r	.	8bn\L	.	.	.	.	.	.	.	.	.	.
.	.	.	.	.	16gg\L	.	.	.	.	.	.	.	.	.	.
.	.	.	.	.	16ff\JJ	.	.	.	.	.	.	.	.	.	.
=7-	=7-	=7-	=7-	=7-	=7-	=7-	=7-	=7-	=7-	=7-	=7-	=7-	=7-	=7-	=7-
2C/	.	.	8r	.	4ee\	.	0ryy	.	.	0ryy	.	.	0ryy	.	.
.	.	.	8cc\	.	.	.	.	.	.	.	.	.	.	.	.
.	.	.	8g/L	.	4r	.	.	.	.	.	.	.	.	.	.
.	.	.	16cc/L	.	.	.	.	.	.	.	.	.	.	.	.
.	.	.	16b-/JJ	.	.	.	.	.	.	.	.	.	.	.	.
2F\	.	.	4.a/	.	8r	.	.	.	.	.	.	.	.	.	.
.	.	.	.	.	8ff\	.	.	.	.	.	.	.	.	.	.
.	.	.	.	.	8cc\L	.	.	.	.	.	.	.	.	.	.
.	.	.	8a/	.	16ff\L	.	.	.	.	.	.	.	.	.	.
.	.	.	.	.	16ee\JJ	.	.	.	.	.	.	.	.	.	.
*	*	*	*custos:b	*	*	*	*	*	*	*	*	*	*	*	*
!	!	!	!LO:LB:g=original	!	!	!	!	!	!	!	!	!	!	!	!
=8-	=8-	=8-	=8-	=8-	=8-	=8-	=8-	=8-	=8-	=8-	=8-	=8-	=8-	=8-	=8-
4BB-/	.	.	8b-/L	.	8dd\L	.	.	.	.	.	.	.	.	.	.
.	.	.	8b-/	.	8dd\	.	.	.	.	.	.	.	.	.	.
4C/	.	.	8a/	.	8cc\	.	.	.	.	.	.	.	.	.	.
.	.	.	8g/J	.	8b-y\J	.	.	.	.	.	.	.	.	.	.
*custos:D	*	*	*	*	*	*	*	*	*	*	*	*	*	*	*
!LO:LB:g=original	!	!	!	!	!	!	!	!	!	!	!	!	!	!	!
4D/	.	.	8f/L	.	8a/L	.	.	.	.	.	.	.	.	.	.
.	.	.	8g/	.	8b-/	.	.	.	.	.	.	.	.	.	.
!LO:TX:t=P:problem:kreska pseudotaktowa	!	!	!	!	!	!	!	!	!	!	!	!	!	!	!
4AA/	6	.	8a/	.	8cc/	.	.	.	.	.	.	.	.	.	.
!	!	!	!LO:TX:t=P:problem:kreska pseudotaktowa	!	!	!	!	!	!	!	!	!	!	!	!
.	.	.	8c/J	.	8cc/J	.	.	.	.	.	.	.	.	.	.
*	*	*	*	*	*custos:b	*	*	*	*	*	*	*	*	*	*
!	!	!	!	!	!LO:LB:g=original	!	!	!	!	!	!	!	!	!	!
=9-	=9-	=9-	=9-	=9-	=9-	=9-	=9-	=9-	=9-	=9-	=9-	=9-	=9-	=9-	=9-
2BB-/	.	.	8d/L	.	4.b-/	.	0ryy	.	.	0ryy	.	.	0ryy	.	.
.	.	.	8e/J	.	.	.	.	.	.	.	.	.	.	.	.
.	.	.	4f/	.	.	.	.	.	.	.	.	.	.	.	.
.	.	.	.	.	8a/	.	.	.	.	.	.	.	.	.	.
2C/	4	.	4.f/	.	4.g/	.	.	.	.	.	.	.	.	.	.
!	!	!	!LO:TX:t=P:problem:kreska pseudotaktowa	!	!	!	!	!	!	!	!	!	!	!	!
.	3	.	8e/	.	8g/	.	.	.	.	.	.	.	.	.	.
=10-	=10-	=10-	=10-	=10-	=10-	=10-	=10-	=10-	=10-	=10-	=10-	=10-	=10-	=10-	=10-
4.FF/	5	.	4.f/	.	8a/L	.	.	.	.	.	.	.	.	.	.
.	.	.	.	.	8cc/J	.	.	.	.	.	.	.	.	.	.
.	6	.	.	.	4.dd\	.	.	.	.	.	.	.	.	.	.
8FF/	.	.	8a/	.	.	.	.	.	.	.	.	.	.	.	.
!	!	!	!LO:N:acc=#	!	!	!	!	!	!	!	!	!	!	!	!
4.GG/	5	.	4.bn/	.	.	.	.	.	.	.	.	.	.	.	.
.	.	.	.	.	8dd\	.	.	.	.	.	.	.	.	.	.
.	6	.	.	.	4.ee\	.	.	.	.	.	.	.	.	.	.
8GG/	.	.	8b/	.	.	.	.	.	.	.	.	.	.	.	.
=11-	=11-	=11-	=11-	=11-	=11-	=11-	=11-	=11-	=11-	=11-	=11-	=11-	=11-	=11-	=11-
4.AA/	5	.	4.cc\	.	.	.	0ryy	.	.	0ryy	.	.	0ryy	.	.
.	.	.	.	.	8ee\	.	.	.	.	.	.	.	.	.	.
.	6	.	.	.	(4ff\	.	.	.	.	.	.	.	.	.	.
!LO:N:acc=#	!	!	!	!	!	!	!	!	!	!	!	!	!	!	!
8BBn/	.	.	8dd\	.	.	.	.	.	.	.	.	.	.	.	.
2C/	4	.	4.g/	.	4ff\)	.	.	.	.	.	.	.	.	.	.
.	3	.	.	.	4ee\	.	.	.	.	.	.	.	.	.	.
.	.	.	8cc\	.	.	.	.	.	.	.	.	.	.	.	.
=12-	=12-	=12-	=12-	=12-	=12-	=12-	=12-	=12-	=12-	=12-	=12-	=12-	=12-	=12-	=12-
4FF/	.	.	4.cc\	.	4.dd\	.	.	.	.	.	.	.	.	.	.
4GG/	.	.	.	.	.	.	.	.	.	.	.	.	.	.	.
!	!	!	!LO:N:acc=#	!	!	!	!	!	!	!	!	!	!	!	!
.	.	.	8bn\	.	8dd\	.	.	.	.	.	.	.	.	.	.
!LO:TX:t=P:problem:kreska pseudotaktowa	!	!	!	!	!	!	!	!	!	!	!	!	!	!	!
!	!	!	!	!	!LO:TX:b:t=adagio:mod=	!	!	!	!	!	!	!	!	!	!
2C/	5	.	4cc\	.	4ee\	.	.	.	.	.	.	.	.	.	.
!	!	!	!LO:TX:b:t=adagio:mod=	!	!	!	!	!	!	!	!	!	!	!	!
.	6	.	2a/	.	4cc\	.	.	.	.	.	.	.	.	.	.
=13-	=13-	=13-	=13-	=13-	=13-	=13-	=13-	=13-	=13-	=13-	=13-	=13-	=13-	=13-	=13-
!!!OMD:
!!!OMD-mod: Adagio
!LO:TX:b:t=adagio:mod=	!	!	!	!	!	!	!	!	!	!	!	!	!	!	!
4D/	6 5	.	.	.	2b-/	.	0ryy	.	.	0ryy	.	.	0ryy	.	.
4E\	.	.	2g/	.	.	.	.	.	.	.	.	.	.	.	.
4F\	9	.	.	.	2a/	.	.	.	.	.	.	.	.	.	.
.	8	.	.	.	.	.	.	.	.	.	.	.	.	.	.
4AA/	6	.	2f/	.	.	.	.	.	.	.	.	.	.	.	.
=14-	=14-	=14-	=14-	=14-	=14-	=14-	=14-	=14-	=14-	=14-	=14-	=14-	=14-	=14-	=14-
!LO:N:acc=#	!	!	!	!	!	!	!	!	!	!	!	!	!	!	!
4BBn/	6 -5	.	.	.	4.g/	.	.	.	.	.	.	.	.	.	.
!	!	!	!LO:TX:t=P:problem:kreska pseudotaktowa	!	!	!	!	!	!	!	!	!	!	!	!
4C#X/	5	.	4e/	.	.	.	.	.	.	.	.	.	.	.	.
.	6	.	.	.	8a/	.	.	.	.	.	.	.	.	.	.
4D/	6	.	4f/	.	4b-/	.	.	.	.	.	.	.	.	.	.
!	!	!	!LO:TX:t=P:problem:kreska pseudotaktowa	!	!	!	!	!	!	!	!	!	!	!	!
4C#/	6	.	4e/	.	4a/	.	.	.	.	.	.	.	.	.	.
=15-	=15-	=15-	=15-	=15-	=15-	=15-	=15-	=15-	=15-	=15-	=15-	=15-	=15-	=15-	=15-
4BB-y/	6	.	4d/	.	4g/	.	0ryy	.	.	0ryy	.	.	0ryy	.	.
4AA/	6	.	4c/	.	4f#X/	.	.	.	.	.	.	.	.	.	.
!	!	!	!LO:TX:t=P:problem:mixed beam	!	!LO:TX:t=P:problem:mixed beam	!	!	!	!	!	!	!	!	!	!
4GG/	.	.	8B-/L	.	8g/L	.	.	.	.	.	.	.	.	.	.
.	.	.	8b-y\	.	8gg\	.	.	.	.	.	.	.	.	.	.
4AA/	6	.	8a\	.	8ff\	.	.	.	.	.	.	.	.	.	.
!	!	!	!LO:TX:t=P:problem:kreska pseudotaktowa	!	!	!	!	!	!	!	!	!	!	!	!
.	.	.	8g\J	.	8ee\J	.	.	.	.	.	.	.	.	.	.
=16-	=16-	=16-	=16-	=16-	=16-	=16-	=16-	=16-	=16-	=16-	=16-	=16-	=16-	=16-	=16-
*	*	*	*	*	*2\right	*	*	*	*	*	*	*	*	*	*
4BB-/	.	.	4.f/	.	2.dd\	.	.	.	.	.	.	.	.	.	.
4FF/	6	.	.	.	.	.	.	.	.	.	.	.	.	.	.
.	.	.	8f/	.	.	.	.	.	.	.	.	.	.	.	.
4GG/	6 5	.	2e/	.	.	.	.	.	.	.	.	.	.	.	.
4AA/	x #	.	.	.	4cc#X\	.	.	.	.	.	.	.	.	.	.
=17-	=17-	=17-	=17-	=17-	=17-	=17-	=17-	=17-	=17-	=17-	=17-	=17-	=17-	=17-	=17-
!	!	!	!	!	!LO:MO:mod=!null:null	!	!	!	!	!	!	!	!	!	!
!	!	!	!	!	!LO:TX:b:t=piano	!	!	!	!	!	!	!	!	!	!
2D/	-	.	4f/	.	4dd\	.	0ryy	.	.	0ryy	.	.	0ryy	.	.
.	.	.	2d/	.	4ff\	.	.	.	.	.	.	.	.	.	.
!	!	!LO:DY:b:t=piano.	!	!	!	!	!	!	!	!	!	!	!	!	!
!	!	!LO:MO:null:mod=.	!	!	!	!	!	!	!	!	!	!	!	!	!
4GG/	6 5	p	.	.	2ee\	.	.	.	.	.	.	.	.	.	.
!	!	!	!LO:TX:a:t=P:problem:# above	!	!	!	!	!	!	!	!	!	!	!	!
4AA/	#	.	4c#X/	.	.	.	.	.	.	.	.	.	.	.	.
=18-	=18-	=18-	=18-	=18-	=18-	=18-	=18-	=18-	=18-	=18-	=18-	=18-	=18-	=18-	=18-
!	!	!LO:MO:null:mod=p	!	!LO:DY:b:t=piano	!	!LO:MO:null:mod=p	!	!	!	!	!	!	!	!	!
1D;	.	.	1d;	p	1dd;	.	.	.	.	.	.	.	.	.	.
!LO:LB:g=original	!	!	!LO:LB:g=original	!	!LO:LB:g=original	!	!	!	!	!	!	!	!	!	!
=19||-	=19||-	=19||-	=19||-	=19||-	=19||-	=19||-	=19||-	=19||-	=19||-	=19||-	=19||-	=19||-	=19||-	=19||-	=19||-
!	!	!	!LO:MO:mod=*null:null	!	!LO:MO:mod=*null:null	!	!	!	!	!	!	!	!	!	!
*	*	*	*clefC1	*	*clefC1	*	*	*	*	*	*	*	*	*	*
!LO:MO:null:mod=*M2/2	!	!	!	!	!	!	!	!	!	!	!	!	!LO:MO:null:mod=*M2/2	!	!
*	*	*	*M2/2	*	*M2/2	*	*	*	*	*	*	*	*	*	*
!LO:MO:null:mod=*met(c)	!	!	!	!	!	!	!	!	!	!	!	!	!LO:MO:null:mod=*met(c)	!	!
*	*	*	*met(c)	*	*met(c)	*	*	*	*	*	*	*	*	*	*
*mmet(c)	*	*	*mmet(c)	*	*mmet(c)	*	*mmet(c)	*	*	*mmet(c)	*	*	*mmet(c)	*	*
!LO:TX:b:t=Repleta est:mod=	!	!	!LO:TX:b:t=Repleta est.:mod=	!	!LO:TX:b:t=Replata est.:mod=	!	!	!	!	!	!	!	!	!	!
!LO:TX:a:t=Alto ſolo:mod=	!	!	!LO:TX:a:t=un poco piano e tutto adagio:mod=	!	!LO:TX:a:t=un poco piano e tutto adagio:mod=	!	!	!	!	!	!	!	!	!	!
[<1D	.	.	1f	.	1a	.	0ryy	.	.	0ryy	.	.	4r	.	.
.	.	.	.	.	.	.	.	.	.	.	.	.	8r	.	.
.	.	.	.	.	.	.	.	.	.	.	.	.	8A/	Re-	Re-
.	.	.	.	.	.	.	.	.	.	.	.	.	4d\	-ple-	-ple-
.	.	.	.	.	.	.	.	.	.	.	.	.	8d\	-ta	-ta
!	!	!	!	!	!	!	!	!	!	!	!	!	!LO:TX:t=P:problem:kreska pseudotaktowa	!	!
.	.	.	.	.	.	.	.	.	.	.	.	.	8d\	est	est
=20-	=20-	=20-	=20-	=20-	=20-	=20-	=20-	=20-	=20-	=20-	=20-	=20-	=20-	=20-	=20-
2D/]	.	.	2d/	.	2.a\	.	.	.	.	.	.	.	4f\	ma-	ma-
.	.	.	.	.	.	.	.	.	.	.	.	.	4.f\	-lis	-lis
2E\	# 6	.	4c#X/	.	.	.	.	.	.	.	.	.	.	.	.
.	.	.	.	.	.	.	.	.	.	.	.	.	8c#X/	a-	a-
.	.	.	4e/	.	4g/	.	.	.	.	.	.	.	8.c#/	-ni-	-ni-
!	!	!	!	!	!	!	!	!	!	!	!	!	!LO:TX:t=P:problem:kreska pseudotaktowa	!	!
.	.	.	.	.	.	.	.	.	.	.	.	.	16d\	-ma	-ma
=21-	=21-	=21-	=21-	=21-	=21-	=21-	=21-	=21-	=21-	=21-	=21-	=21-	=21-	=21-	=21-
[1D	-	.	1A	.	2.fny/	.	0ryy	.	.	0ryy	.	.	2d\	nos-	nos-
.	.	.	.	.	.	.	.	.	.	.	.	.	2d\	-tra	-tra
.	.	.	.	.	4a\	.	.	.	.	.	.	.	.	.	.
=22-	=22-	=22-	=22-	=22-	=22-	=22-	=22-	=22-	=22-	=22-	=22-	=22-	=22-	=22-	=22-
1D]	.	.	2f/	.	1a	.	.	.	.	.	.	.	4r	.	.
.	.	.	.	.	.	.	.	.	.	.	.	.	8r	.	.
.	.	.	.	.	.	.	.	.	.	.	.	.	8d\	re-	re-
.	.	.	1d	.	.	.	.	.	.	.	.	.	4f\	-ple-	-ple-
.	.	.	.	.	.	.	.	.	.	.	.	.	8f\	-ta	-ta
!	!	!	!	!	!	!	!	!	!	!	!	!	!LO:TX:t=P:problem:kreska pseudotaktowa	!	!
.	.	.	.	.	.	.	.	.	.	.	.	.	8f\	est	est
=23-	=23-	=23-	=23-	=23-	=23-	=23-	=23-	=23-	=23-	=23-	=23-	=23-	=23-	=23-	=23-
2GG/	.	.	.	.	2g/	.	0ryy	.	.	0ryy	.	.	4b-\	ma-	ma-
.	.	.	.	.	.	.	.	.	.	.	.	.	4b-\	-lis	-lis
2AA/	# 6	.	4.cny/	.	4r	.	.	.	.	.	.	.	4f#X\	a-	a-
.	.	.	.	.	4ccny\	.	.	.	.	.	.	.	8.f#\	-ni-	-ni-
.	.	.	8d/	.	.	.	.	.	.	.	.	.	.	.	.
.	.	.	.	.	.	.	.	.	.	.	.	.	16g\	-ma	-ma
*	*	*	*	*	*	*	*	*	*	*	*	*	*custos:g	*	*
!	!	!	!	!	!	!	!	!	!	!	!	!	!LO:LB:g=original	!	!
=24-	=24-	=24-	=24-	=24-	=24-	=24-	=24-	=24-	=24-	=24-	=24-	=24-	=24-	=24-	=24-
2GG/	.	.	[1d	.	2b-\	.	.	.	.	.	.	.	4g\	nos-	nos-
.	.	.	.	.	.	.	.	.	.	.	.	.	4g\	-tra	-tra
2BB-/	6	.	.	.	2g/	.	.	.	.	.	.	.	4d\	a-	a-
.	.	.	.	.	.	.	.	.	.	.	.	.	8d\	-ni-	-ni-
.	.	.	.	.	.	.	.	.	.	.	.	.	8e\	-ma	-ma
=25-	=25-	=25-	=25-	=25-	=25-	=25-	=25-	=25-	=25-	=25-	=25-	=25-	=25-	=25-	=25-
1AA	6 4	.	2d/]	.	(1a	.	0ryy	.	.	0ryy	.	.	2fny\	nos-	nos-
!	!	!	!LO:TX:b:t=P:problem:# below	!	!	!	!	!	!	!	!	!	!	!	!
.	5 #3r	.	2c#X/	.	.	.	.	.	.	.	.	.	2e\	-tra	-tra
=26-	=26-	=26-	=26-	=26-	=26-	=26-	=26-	=26-	=26-	=26-	=26-	=26-	=26-	=26-	=26-
2A\	#	.	2c#/	.	1a	.	.	.	.	.	.	.	8r	.	.
.	.	.	.	.	.	.	.	.	.	.	.	.	8e\	et	et
.	.	.	.	.	.	.	.	.	.	.	.	.	8.e\	fac-	fac-
.	.	.	.	.	.	.	.	.	.	.	.	.	16f\	-ti	-ti
[2F#X\	.	.	2d/	.	.	.	.	.	.	.	.	.	4d\	su-	su-
!	!	!	!	!	!	!	!	!	!	!	!	!	!LO:TX:t=P:problem:kreska pseudotaktowa	!	!
.	.	.	.	.	.	.	.	.	.	.	.	.	4d\	-mus	-mus
=27-	=27-	=27-	=27-	=27-	=27-	=27-	=27-	=27-	=27-	=27-	=27-	=27-	=27-	=27-	=27-
2F#\]	.	.	1d	.	1a)	.	0ryy	.	.	0ryy	.	.	4r	.	.
.	.	.	.	.	.	.	.	.	.	.	.	.	4a\	et	et
!LO:SIC:v:o=2Fny\	!	!	!	!	!	!	!	!	!	!	!	!	!	!	!
2F#	6 -5	.	.	.	.	.	.	.	.	.	.	.	4.cc\	fac-	fac-
!	!	!	!	!	!	!	!	!	!	!	!	!	!LO:TX:t=P:problem:kreska pseudotaktowa	!	!
.	.	.	.	.	.	.	.	.	.	.	.	.	8b-\	-ti	-ti
=28-	=28-	=28-	=28-	=28-	=28-	=28-	=28-	=28-	=28-	=28-	=28-	=28-	=28-	=28-	=28-
2G\	.	.	2d/	.	1g	.	.	.	.	.	.	.	4b-\	su-	su-
.	.	.	.	.	.	.	.	.	.	.	.	.	4b-\	-m(us)	-mus
[2G\	6	.	4.e/	.	.	.	.	.	.	.	.	.	4.g\	si-	si-
!	!	!	!	!	!	!	!	!	!	!	!	!	!LO:TX:t=P:problem:kreska pseudotaktowa	!	!
.	.	.	8c#X/	.	.	.	.	.	.	.	.	.	8e\	-cut	-cut
=29-	=29-	=29-	=29-	=29-	=29-	=29-	=29-	=29-	=29-	=29-	=29-	=29-	=29-	=29-	=29-
2G\]	6 4 2	.	2A/	.	1a	.	0ryy	.	.	0ryy	.	.	4c#X/	ho-	ho-
.	.	.	.	.	.	.	.	.	.	.	.	.	4c#/	-mo	-mo
2F\	6	.	4f/	.	.	.	.	.	.	.	.	.	8d\	si-	si-
.	.	.	.	.	.	.	.	.	.	.	.	.	8d\	-ne	-ne
.	.	.	2d/	.	.	.	.	.	.	.	.	.	8e\	ad-	ad-
.	.	.	.	.	.	.	.	.	.	.	.	.	8f\	-iu-	-iu-
=30-	=30-	=30-	=30-	=30-	=30-	=30-	=30-	=30-	=30-	=30-	=30-	=30-	=30-	=30-	=30-
2E\	7	.	.	.	4.g/	.	.	.	.	.	.	.	4.g\	-to-	-to-
.	6	.	4c#X/	.	.	.	.	.	.	.	.	.	.	.	.
.	.	.	.	.	8a\	.	.	.	.	.	.	.	8f\	-ri-	-ri-
[2D/	-	.	2d/	.	2a\	.	.	.	.	.	.	.	2f\	-o	-o
*	*	*	*	*	*	*	*	*	*	*	*	*	*custos:b	*	*
!	!	!	!	!	!	!	!	!	!	!	!	!	!LO:LB:g=original	!	!
=31-	=31-	=31-	=31-	=31-	=31-	=31-	=31-	=31-	=31-	=31-	=31-	=31-	=31-	=31-	=31-
!	!	!	!	!	!	!	!	!	!	!	!	!	!LO:TX:b:t=adagio:mod=	!	!
4D/]	- 6	.	4f/	.	1d	.	0ryy	.	.	0ryy	.	.	4b-X\	si-	si-
4Cny/	6	.	4e/	.	.	.	.	.	.	.	.	.	4a\	-cut	-cut
4BB-/	6	.	4d/	.	.	.	.	.	.	.	.	.	4g\	ho-	ho-
4AA/	6	.	4cny/	.	.	.	.	.	.	.	.	.	4f\	-mo	-mo
*custos:GG	*	*	*	*	*	*	*	*	*	*	*	*	*	*	*
!LO:LB:g=original	!	!	!	!	!	!	!	!	!	!	!	!	!	!	!
=32-	=32-	=32-	=32-	=32-	=32-	=32-	=32-	=32-	=32-	=32-	=32-	=32-	=32-	=32-	=32-
2GG/	- 6	.	4B-/	.	2.g/	.	.	.	.	.	.	.	8.e-X\	si-	si-
.	.	.	.	.	.	.	.	.	.	.	.	.	16e-\	-ne	-ne
*	*	*	*2\right	*	*	*	*	*	*	*	*	*	*	*	*
.	.	.	2b-\	.	.	.	.	.	.	.	.	.	8f\	ad-	ad-
.	.	.	.	.	.	.	.	.	.	.	.	.	8g\	-iu-	-iu-
4BB-/	.	.	.	.	.	.	.	.	.	.	.	.	[2d\	-to-	-to-
4FF/	6	.	4a\	.	4f/	.	.	.	.	.	.	.	.	.	.
=33-	=33-	=33-	=33-	=33-	=33-	=33-	=33-	=33-	=33-	=33-	=33-	=33-	=33-	=33-	=33-
4GG/	.	.	4b-\	.	2e/	.	0ryy	.	.	0ryy	.	.	4.d\]	.	.
4AA/	4	.	4a\	.	.	.	.	.	.	.	.	.	.	.	.
.	3	.	.	.	.	.	.	.	.	.	.	.	16eny\LL	-ri-	-ri-
.	.	.	.	.	.	.	.	.	.	.	.	.	16f\JJ	.	.
[2D/	.	.	4a\	.	4f/	.	.	.	.	.	.	.	2d\	-o	-o
.	.	.	2f/	.	4a\	.	.	.	.	.	.	.	.	.	.
=34-	=34-	=34-	=34-	=34-	=34-	=34-	=34-	=34-	=34-	=34-	=34-	=34-	=34-	=34-	=34-
!	!	!	!	!	!	!	!	!	!	!	!	!	!LO:TX:a:t=2:mod=	!	!
4D/]	6	.	.	.	4b-\	.	.	.	.	.	.	.	0r	.	.
4C/	6	.	4e/	.	4a\	.	.	.	.	.	.	.	.	.	.
4BB-/	6	.	4d/	.	4g/	.	.	.	.	.	.	.	.	.	.
4AA/	6	.	4c/	.	4f/	.	.	.	.	.	.	.	.	.	.
=35-	=35-	=35-	=35-	=35-	=35-	=35-	=35-	=35-	=35-	=35-	=35-	=35-	=35-	=35-	=35-
2GG/	- 6	.	4B-/	.	4.e-X/	.	0ryy	.	.	0ryy	.	.	.	.	.
.	.	.	2b-\	.	.	.	.	.	.	.	.	.	.	.	.
.	x 5	.	.	.	8d/	.	.	.	.	.	.	.	.	.	.
4BB-/	.	.	.	.	2.d/	.	.	.	.	.	.	.	.	.	.
4FF/	.	.	4a\	.	.	.	.	.	.	.	.	.	.	.	.
=36-	=36-	=36-	=36-	=36-	=36-	=36-	=36-	=36-	=36-	=36-	=36-	=36-	=36-	=36-	=36-
4GG/	.	.	4.e/	.	.	.	.	.	.	.	.	.	2r	.	.
4AA/	.	.	.	.	4c#X/	.	.	.	.	.	.	.	.	.	.
.	.	.	8e/	.	.	.	.	.	.	.	.	.	.	.	.
1D	#	.	2f#X/	.	2d/	.	.	.	.	.	.	.	4r	.	.
!	!	!	!	!	!	!	!	!	!	!	!	!	!LO:TX:t=P:problem:kreska pseudotaktowa	!	!
.	.	.	.	.	.	.	.	.	.	.	.	.	4f#X\	et	et
=37-	=37-	=37-	=37-	=37-	=37-	=37-	=37-	=37-	=37-	=37-	=37-	=37-	=37-	=37-	=37-
!	!	!	!	!	!	!	!	!	!	!	!	!	!LO:SIC:v:o=8fny\	!	!
.	.	.	2d/	.	2a\	.	0ryy	.	.	0ryy	.	.	8f#	si-	si-
!	!	!	!	!	!	!	!	!	!	!	!	!	!LO:SIC:v:o=8f\	!	!
.	.	.	.	.	.	.	.	.	.	.	.	.	8f#	-cut	-cut
!	!	!	!	!	!	!	!	!	!	!	!	!	!LO:SIC:v:o=8.f\	!	!
.	.	.	.	.	.	.	.	.	.	.	.	.	8.f#	vul-	vul-
.	.	.	.	.	.	.	.	.	.	.	.	.	16g\	-ne-	-ne-
!LO:N:acc=#	!	!	!	!	!	!	!	!	!	!	!	!	!	!	!
[2BBn/	6	.	4.d/	.	4.g/	.	.	.	.	.	.	.	4g\	-ra-	-ra-
.	.	.	.	.	.	.	.	.	.	.	.	.	4g\	-ti	-ti
.	.	.	8d/	.	8g,/	.	.	.	.	.	.	.	.	.	.
=38-	=38-	=38-	=38-	=38-	=38-	=38-	=38-	=38-	=38-	=38-	=38-	=38-	=38-	=38-	=38-
2BB/]	6 -5	.	8d/L	.	8f/L	.	.	.	.	.	.	.	2r	.	.
.	x 6	.	8d/	.	8f/	.	.	.	.	.	.	.	.	.	.
.	.	.	8.d/	.	8f/	.	.	.	.	.	.	.	.	.	.
.	.	.	.	.	8g/J	.	.	.	.	.	.	.	.	.	.
.	.	.	16e/Jk	.	.	.	.	.	.	.	.	.	.	.	.
2C/	#	.	2e/	.	2g,/	.	.	.	.	.	.	.	4r	.	.
*	*	*	*custos:c	*	*	*	*	*	*	*	*	*	*	*ij	*ij
.	.	.	.	.	.	.	.	.	.	.	.	.	4g\	et	et
!	!	!	!LO:LB:g=original	!	!	!	!	!	!	!	!	!	!	!	!
=39-	=39-	=39-	=39-	=39-	=39-	=39-	=39-	=39-	=39-	=39-	=39-	=39-	=39-	=39-	=39-
2.C/	5	.	2c/	.	2.eny/	.	0ryy	.	.	0ryy	.	.	8g\	si-	si-
.	.	.	.	.	.	.	.	.	.	.	.	.	8g\	-cut	-cut
.	.	.	.	.	.	.	.	.	.	.	.	.	8.g\	vul-	vul-
.	6	.	.	.	.	.	.	.	.	.	.	.	16a\	-ne-	-ne-
*	*	*	*	*	*	*	*	*	*	*	*	*	*custos:a	*	*
!	!	!	!	!	!	!	!	!	!	!	!	!	!LO:LB:g=original	!	!
.	.	.	2A/	.	.	.	.	.	.	.	.	.	4a\	-ra-	-ra-
!	!	!	!	!	!	!	!	!	!	!	!	!	!LO:TX:t=P:problem:kreska pseudotaktowa	!	!
4C/	.	.	.	.	4e,/	.	.	.	.	.	.	.	4a\	-ti	-ti
*	*	*	*	*	*	*	*	*	*	*	*	*	*	*Xij	*Xij
=40-	=40-	=40-	=40-	=40-	=40-	=40-	=40-	=40-	=40-	=40-	=40-	=40-	=40-	=40-	=40-
8C#X/L	6	.	1a	.	8e/L	.	.	.	.	.	.	.	2r	.	.
8C#/	.	.	.	.	8e/	.	.	.	.	.	.	.	.	.	.
8C#/	.	.	.	.	8.e/	.	.	.	.	.	.	.	.	.	.
8D/J	#	.	.	.	.	.	.	.	.	.	.	.	.	.	.
!	!	!	!	!	!LO:TX:b:t=P:problem:# below	!	!	!	!	!	!	!	!	!	!
.	.	.	.	.	16f#X/Jk	.	.	.	.	.	.	.	.	.	.
!	!	!	!	!	!LO:LB:g=original	!	!	!	!	!	!	!	!	!	!
2D/	.	.	.	.	4f#X/	.	.	.	.	.	.	.	4r	.	.
.	.	.	.	.	4f#,/	.	.	.	.	.	.	.	8a\	dor-	dor-
!	!	!	!	!	!	!	!	!	!	!	!	!	!LO:TX:t=P:problem:kreska pseudotaktowa	!	!
.	.	.	.	.	.	.	.	.	.	.	.	.	8a\	-mi-	-mi-
=41-	=41-	=41-	=41-	=41-	=41-	=41-	=41-	=41-	=41-	=41-	=41-	=41-	=41-	=41-	=41-
1D	7 5 #3	.	2.a\	.	2.f#/	.	0ryy	.	.	0ryy	.	.	4.cc\	-en-	-en-
.	.	.	.	.	.	.	.	.	.	.	.	.	8cc\	-tos	-tos
.	.	.	.	.	.	.	.	.	.	.	.	.	4.cc\	in	in
.	.	.	4a\	.	4d,/	.	.	.	.	.	.	.	.	.	.
.	.	.	.	.	.	.	.	.	.	.	.	.	8b-X\	se-	se-
=42-	=42-	=42-	=42-	=42-	=42-	=42-	=42-	=42-	=42-	=42-	=42-	=42-	=42-	=42-	=42-
2GG/	.	.	2g/	.	2d/	.	.	.	.	.	.	.	4b-\	-pul-	-pul-
.	.	.	.	.	.	.	.	.	.	.	.	.	4b-\	-chris	-chris
!LO:TX:t=P:problem:kreska pseudotaktowa	!	!	!LO:TX:b:t=adagio:mod=	!	!LO:TX:b:t=adagio:mod=	!	!	!	!	!	!	!	!LO:TX:a:t=adagio:mod=	!	!
[<2G\	10 8 5	.	4g/	.	4b-\	.	.	.	.	.	.	.	4d\	dor-	dor-
.	9 7 4	.	4f#X/	.	4a,\	.	.	.	.	.	.	.	4cny/	-mi-	-mi-
=43-	=43-	=43-	=43-	=43-	=43-	=43-	=43-	=43-	=43-	=43-	=43-	=43-	=43-	=43-	=43-
2G\]	7 5 3	.	2d/	.	4g/	.	0ryy	.	.	0ryy	.	.	2B-/	-en-	-en-
.	.	.	.	.	4fny/	.	.	.	.	.	.	.	.	.	.
4.G\	- 6 4	.	4c/	.	4e-X/	.	.	.	.	.	.	.	2G/	-tos	-tos
!	!	!	!LO:N:acc=#	!	!	!	!	!	!	!	!	!	!	!	!
.	.	.	4Bn/	.	4d,/	.	.	.	.	.	.	.	.	.	.
8F\	x 5 3	.	.	.	.	.	.	.	.	.	.	.	.	.	.
*custos:E	*	*	*	*	*	*	*	*	*	*	*	*	*	*	*
!LO:LB:g=original	!	!	!	!	!	!	!	!	!	!	!	!	!	!	!
=44-	=44-	=44-	=44-	=44-	=44-	=44-	=44-	=44-	=44-	=44-	=44-	=44-	=44-	=44-	=44-
4E-X\	6	.	1g	.	4e-/	.	.	.	.	.	.	.	4g\	dor-	dor-
!	!	!	!	!	!LO:N:acc=#	!	!	!	!	!	!	!	!	!	!
4D/	# 6	.	.	.	4Bn/	.	.	.	.	.	.	.	4f\	-mi-	-mi-
4Cny/	-	.	.	.	4cny/	.	.	.	.	.	.	.	4e-X\	-en-	-en-
!LO:N:acc=#	!	!	!	!	!	!	!	!	!	!	!	!	!	!	!
4BBn/	.	.	.	.	4d,/	.	.	.	.	.	.	.	4d\	-tos	-tos
=45-	=45-	=45-	=45-	=45-	=45-	=45-	=45-	=45-	=45-	=45-	=45-	=45-	=45-	=45-	=45-
[2C/	-	.	2.g/	.	2c/	.	0ryy	.	.	0ryy	.	.	2.e-X\	in	in
2C/]	5	.	.	.	2.cc\	.	.	.	.	.	.	.	.	.	.
.	6	.	4a\	.	.	.	.	.	.	.	.	.	4e-\	se-	se-
=46-	=46-	=46-	=46-	=46-	=46-	=46-	=46-	=46-	=46-	=46-	=46-	=46-	=46-	=46-	=46-
1D	7 #3	.	4f#X/	.	.	.	.	.	.	.	.	.	1d	-pul-	-pul-
.	6 4	.	2g/	.	4b-\	.	.	.	.	.	.	.	.	.	.
.	5 #3r	.	.	.	2a,\	.	.	.	.	.	.	.	.	.	.
.	.	.	4f#X/	.	.	.	.	.	.	.	.	.	.	.	.
=47-	=47-	=47-	=47-	=47-	=47-	=47-	=47-	=47-	=47-	=47-	=47-	=47-	=47-	=47-	=47-
2GG/	.	.	2g/	.	2b-\	.	0ryy	.	.	0ryy	.	.	2d\	-chris	-chris
!LO:TX:t=P:problem:kreska pseudotaktowa	!	!	!	!	!	!	!	!	!	!	!	!	!	!	!
[<2G\	5	.	1B-y	.	1g	.	.	.	.	.	.	.	4r	.	.
.	.	.	.	.	.	.	.	.	.	.	.	.	8.d\	quo-	quo-
.	.	.	.	.	.	.	.	.	.	.	.	.	16d\	-rum	-rum
*	*	*	*	*	*	*	*	*	*	*	*	*	*custos:e	*	*
!	!	!	!	!	!	!	!	!	!	!	!	!	!LO:LB:g=original	!	!
=48-	=48-	=48-	=48-	=48-	=48-	=48-	=48-	=48-	=48-	=48-	=48-	=48-	=48-	=48-	=48-
2G\_<	6	.	.	.	.	.	.	.	.	.	.	.	4.eny\	non	non
.	.	.	.	.	.	.	.	.	.	.	.	.	8d\	est	est
2G\]	6 #4 2	.	2e/	.	1a	.	.	.	.	.	.	.	4c#X/	me-	me-
.	.	.	.	.	.	.	.	.	.	.	.	.	4c#/	-mor	-mor
=49-	=49-	=49-	=49-	=49-	=49-	=49-	=49-	=49-	=49-	=49-	=49-	=49-	=49-	=49-	=49-
[<2F\	6	.	2fny/	.	.	.	0ryy	.	.	0ryy	.	.	4r	.	.
.	.	.	.	.	.	.	.	.	.	.	.	.	8.d\	non	non
.	.	.	.	.	.	.	.	.	.	.	.	.	16cny/	est	est
!	!	!	!	!	!	!	!	!	!	!	!	!	!LO:N:acc=#	!	!
2F\]	6 #4 2	.	2d/	.	2g,/	.	.	.	.	.	.	.	2Bn/	me-	me-
=50-	=50-	=50-	=50-	=50-	=50-	=50-	=50-	=50-	=50-	=50-	=50-	=50-	=50-	=50-	=50-
4E-X\	.	.	4g/	.	4cc\	.	.	.	.	.	.	.	4c/	-mor	-mor
!	!	!	!	!	!LO:N:acc=#	!	!	!	!	!	!	!	!	!	!
4D/	# 6	.	4f/	.	4bn\	.	.	.	.	.	.	.	4r	.	.
[2C/	10 8 5	.	4cc\	.	4ee-X\	.	.	.	.	.	.	.	4g\	non	non
!	!	!	!LO:N:acc=#	!	!	!	!	!	!	!	!	!	!	!	!
.	9 7 4	.	4bn\	.	4dd,\	.	.	.	.	.	.	.	4f\	e(st)	est
=51-	=51-	=51-	=51-	=51-	=51-	=51-	=51-	=51-	=51-	=51-	=51-	=51-	=51-	=51-	=51-
2C/]	8 5 3	.	2g/	.	4cc\	.	0ryy	.	.	0ryy	.	.	2e-X\	me-	me-
.	7	.	.	.	4b-y\	.	.	.	.	.	.	.	.	.	.
4.C/	- 6 4	.	4f/	.	4a-X\	.	.	.	.	.	.	.	2c/	-mor	-mor
.	x 5 3	.	4e/	.	4g,/	.	.	.	.	.	.	.	.	.	.
8BB-y/	.	.	.	.	.	.	.	.	.	.	.	.	.	.	.
=52-	=52-	=52-	=52-	=52-	=52-	=52-	=52-	=52-	=52-	=52-	=52-	=52-	=52-	=52-	=52-
!	!	!	!	!	!	!	!	!	!	!	!	!	!LO:TX:b:t=adagio:mod=	!	!
4AA-X/	6	.	1cc	.	4a-X\	.	.	.	.	.	.	.	4cc\	quo-	quo-
4GG/	6	.	.	.	4eny/	.	.	.	.	.	.	.	4b-\	-ru(m)	-rum
4FF/	.	.	.	.	4f/	.	.	.	.	.	.	.	4a-X\	no(n)	non
4EE/	6	.	.	.	4g,/	.	.	.	.	.	.	.	4g\	est	est
=53-	=53-	=53-	=53-	=53-	=53-	=53-	=53-	=53-	=53-	=53-	=53-	=53-	=53-	=53-	=53-
2FF/	-	.	2.cc\	.	2f/	.	0ryy	.	.	0ryy	.	.	2a-X\	me-	me-
2FF/	5	.	.	.	2.ff\	.	.	.	.	.	.	.	2a-\	-mor	-mor
.	6	.	4dd\	.	.	.	.	.	.	.	.	.	.	.	.
=54-	=54-	=54-	=54-	=54-	=54-	=54-	=54-	=54-	=54-	=54-	=54-	=54-	=54-	=54-	=54-
!	!	!	!LO:N:acc=#	!	!	!	!	!	!	!	!	!	!	!	!
1GG	7 #3	.	4bn\	.	.	.	.	.	.	.	.	.	2.g\	am-	am-
.	6 4	.	2cc\	.	4ee-X\	.	.	.	.	.	.	.	.	.	.
.	.	.	.	.	4.dd\	.	.	.	.	.	.	.	.	.	.
.	5 #3r	.	4b\	.	.	.	.	.	.	.	.	.	4g\	-pli-	-pli-
.	.	.	.	.	8gg\	.	.	.	.	.	.	.	.	.	.
=55-	=55-	=55-	=55-	=55-	=55-	=55-	=55-	=55-	=55-	=55-	=55-	=55-	=55-	=55-	=55-
4C/	-	.	4ee-X\	.	2gg\	.	0ryy	.	.	0ryy	.	.	2g\	-us	-us
4BB-/	.	.	4dd\	.	.	.	.	.	.	.	.	.	.	.	.
4AA-X/	6	.	4cc\	.	4ff\	.	.	.	.	.	.	.	2r	.	.
!	!	!	!	!	!LO:N:acc=#	!	!	!	!	!	!	!	!	!	!
4GG/	# 6	.	4b-y\	.	4een\	.	.	.	.	.	.	.	.	.	.
*custos:FF	*	*	*	*	*	*	*	*	*	*	*	*	*	*	*
!LO:LB:g=original	!	!	!	!	!	!	!	!	!	!	!	!	!LO:TX:a:t=4:mod=	!	!
=56-	=56-	=56-	=56-	=56-	=56-	=56-	=56-	=56-	=56-	=56-	=56-	=56-	=56-	=56-	=56-
4FF/	.	.	4a\	.	2.ff\	.	.	.	.	.	.	.	00r	.	.
!	!	!	!LO:N:acc=#	!	!	!	!	!	!	!	!	!	!	!	!
4GG/	.	.	4bn\	.	.	.	.	.	.	.	.	.	.	.	.
4AA-X/	6	.	2.cc\	.	.	.	.	.	.	.	.	.	.	.	.
4EE-X/	.	.	.	.	4ee-X,\	.	.	.	.	.	.	.	.	.	.
=57-	=57-	=57-	=57-	=57-	=57-	=57-	=57-	=57-	=57-	=57-	=57-	=57-	=57-	=57-	=57-
4FF/	6 5	.	.	.	4.dd\	.	0ryy	.	.	0ryy	.	.	.	.	.
!	!	!	!LO:N:acc=#	!	!	!	!	!	!	!	!	!	!	!	!
4GG/	#	.	4bn\	.	.	.	.	.	.	.	.	.	.	.	.
.	.	.	.	.	8gg\	.	.	.	.	.	.	.	.	.	.
!	!	!LO:DY:b:t=pian.	!	!	!	!	!	!	!	!	!	!	!	!	!
!	!	!LO:MO:null:mod=.	!	!	!	!	!	!	!	!	!	!	!	!	!
4C/	-	p	4ee-X\	.	2gg,\	.	.	.	.	.	.	.	.	.	.
4BB-/	.	.	4dd\	.	.	.	.	.	.	.	.	.	.	.	.
*	*	*	*	*	*custos:ff	*	*	*	*	*	*	*	*	*	*
!	!	!	!	!	!LO:LB:g=original	!	!	!	!	!	!	!	!	!	!
=58-	=58-	=58-	=58-	=58-	=58-	=58-	=58-	=58-	=58-	=58-	=58-	=58-	=58-	=58-	=58-
4AA-X/	.	.	4cc\	.	4ff\	.	.	.	.	.	.	.	.	.	.
4GG/	# 6	.	4b\	.	4eeny\	.	.	.	.	.	.	.	.	.	.
4FF/	.	.	4a\	.	2.ff\	.	.	.	.	.	.	.	.	.	.
!	!	!	!LO:TX:a:t=P:problem:# above	!	!	!	!	!	!	!	!	!	!	!	!
!	!	!	!LO:N:acc=#	!	!	!	!	!	!	!	!	!	!	!	!
!	!	!	!LO:SIC:o=4bn\	!	!	!	!	!	!	!	!	!	!	!	!
4GG/	.	.	4b	.	.	.	.	.	.	.	.	.	.	.	.
*	*	*	*custos:cc	*	*	*	*	*	*	*	*	*	*	*	*
!	!	!	!LO:LB:g=original	!	!	!	!	!	!	!	!	!	!	!	!
=59-	=59-	=59-	=59-	=59-	=59-	=59-	=59-	=59-	=59-	=59-	=59-	=59-	=59-	=59-	=59-
4AA-X/	6	.	2.cc\	.	.	.	0ryy	.	.	0ryy	.	.	.	.	.
4EE-X/	.	.	.	.	4ee-X\	.	.	.	.	.	.	.	.	.	.
4FF/	6	.	.	.	2dd,\	.	.	.	.	.	.	.	.	.	.
!	!	!	!LO:N:acc=#	!	!	!	!	!	!	!	!	!	!	!	!
4GG/	.	.	4bn\	.	.	.	.	.	.	.	.	.	.	.	.
=60-	=60-	=60-	=60-	=60-	=60-	=60-	=60-	=60-	=60-	=60-	=60-	=60-	=60-	=60-	=60-
2C/	#	.	1cc	.	4ee-\	.	.	.	.	.	.	.	4r	.	.
.	.	.	.	.	4g/	.	.	.	.	.	.	.	8eny\	Tri-	Tri-
.	.	.	.	.	.	.	.	.	.	.	.	.	8e\	-bu-	-bu-
*	*	*	*	*	*	*	*	*	*	*	*	*	*custos:f	*	*
!LO:TX:t=P:problem:kreska pseudotaktowa	!	!	!	!	!	!	!	!	!	!	!	!	!LO:LB:g=original	!	!
[2AAny/	6	.	.	.	2any,\	.	.	.	.	.	.	.	8.f\	-la-	-la-
.	.	.	.	.	.	.	.	.	.	.	.	.	16f\	-ti-	-ti-
.	.	.	.	.	.	.	.	.	.	.	.	.	4f\	-o	-o
=61-	=61-	=61-	=61-	=61-	=61-	=61-	=61-	=61-	=61-	=61-	=61-	=61-	=61-	=61-	=61-
2AA/]	.	.	2cc\	.	1f	.	0ryy	.	.	0ryy	.	.	4c/	pro-	pro-
.	.	.	.	.	.	.	.	.	.	.	.	.	8c/	-xi-	-xi-
.	.	.	.	.	.	.	.	.	.	.	.	.	8d\	-ma	-ma
2BB-/	.	.	2b-y\	.	.	.	.	.	.	.	.	.	2d\	est	est
=62-	=62-	=62-	=62-	=62-	=62-	=62-	=62-	=62-	=62-	=62-	=62-	=62-	=62-	=62-	=62-
2BB-/	.	.	[1b-	.	1d	.	.	.	.	.	.	.	4r	.	.
.	.	.	.	.	.	.	.	.	.	.	.	.	8f\	tri-	tri-
.	.	.	.	.	.	.	.	.	.	.	.	.	8f\	-bu-	-bu-
!LO:TX:t=P:problem:kreska pseudotaktowa	!	!	!	!	!	!	!	!	!	!	!	!	!	!	!
[2GG/	5	.	.	.	.	.	.	.	.	.	.	.	8.b-X\	-la-	-la-
.	.	.	.	.	.	.	.	.	.	.	.	.	16b-\	-ti-	-ti-
.	.	.	.	.	.	.	.	.	.	.	.	.	4b-\	-o	-o
=63-	=63-	=63-	=63-	=63-	=63-	=63-	=63-	=63-	=63-	=63-	=63-	=63-	=63-	=63-	=63-
2GG/]	# 6	.	2b-\]	.	2g/	.	0ryy	.	.	0ryy	.	.	4e\	pro-	pro-
.	.	.	.	.	.	.	.	.	.	.	.	.	8e\	-xi-	-xi-
.	.	.	.	.	.	.	.	.	.	.	.	.	8f\	-ma	-ma
2FF/	.	.	2a\	.	2c/	.	.	.	.	.	.	.	4f\	est	est
.	.	.	.	.	.	.	.	.	.	.	.	.	8.any\	et	et
.	.	.	.	.	.	.	.	.	.	.	.	.	16a\	no(n)	non
=64-	=64-	=64-	=64-	=64-	=64-	=64-	=64-	=64-	=64-	=64-	=64-	=64-	=64-	=64-	=64-
4BB-/	6	.	2b-\	.	4d/	.	.	.	.	.	.	.	4g\	est	est
4C/	.	.	.	.	4e/	.	.	.	.	.	.	.	8r	.	.
.	.	.	.	.	.	.	.	.	.	.	.	.	16g\LL	no(n)	non
.	.	.	.	.	.	.	.	.	.	.	.	.	16f\JJ	.	.
4D/	.	.	2a\	.	2f/	.	.	.	.	.	.	.	4f\	est	est
4AA/	6	.	.	.	.	.	.	.	.	.	.	.	16r	.	.
.	.	.	.	.	.	.	.	.	.	.	.	.	16cc\LL	qui	qui
.	.	.	.	.	.	.	.	.	.	.	.	.	16b-\	.	.
.	.	.	.	.	.	.	.	.	.	.	.	.	16a\JJ	.	.
=65-	=65-	=65-	=65-	=65-	=65-	=65-	=65-	=65-	=65-	=65-	=65-	=65-	=65-	=65-	=65-
4BB-/	.	.	4d/	.	4.f/	.	0ryy	.	.	0ryy	.	.	4.g\	ad-	ad-
4C/	.	.	4c/	.	.	.	.	.	.	.	.	.	.	.	.
.	.	.	.	.	8e/	.	.	.	.	.	.	.	8g\	-iu-	-iu-
2FF/	.	.	4.c/	.	4.f/	.	.	.	.	.	.	.	2a\	-vet	-vet
.	.	.	8f/	.	8a\	.	.	.	.	.	.	.	.	.	.
*custos:BB	*	*	*	*	*	*	*	*	*	*	*	*	*custos:a	*	*
!LO:LB:g=original	!	!	!	!	!	!	!	!	!	!	!	!	!LO:LB:g=original	!	!
=66-	=66-	=66-	=66-	=66-	=66-	=66-	=66-	=66-	=66-	=66-	=66-	=66-	=66-	=66-	=66-
4BB-/	6 5	.	4.f/	.	4.g/	.	.	.	.	.	.	.	1r	.	.
4C/	.	.	.	.	.	.	.	.	.	.	.	.	.	.	.
.	.	.	8e/	.	8a\	.	.	.	.	.	.	.	.	.	.
4D/	-6	.	4.f/	.	4b-\	.	.	.	.	.	.	.	.	.	.
4AA/	6	.	.	.	4cc\	.	.	.	.	.	.	.	.	.	.
.	.	.	8f/	.	.	.	.	.	.	.	.	.	.	.	.
=67-	=67-	=67-	=67-	=67-	=67-	=67-	=67-	=67-	=67-	=67-	=67-	=67-	=67-	=67-	=67-
4BB-/	6 5	.	4.f/	.	4.g/	.	0ryy	.	.	0ryy	.	.	2r	.	.
4C/	.	.	.	.	.	.	.	.	.	.	.	.	.	.	.
.	.	.	8e/	.	8g/	.	.	.	.	.	.	.	.	.	.
2FF,/	.	.	2f/	.	2a\	.	.	.	.	.	.	.	4r	.	.
.	.	.	.	.	.	.	.	.	.	.	.	.	8a\	tri-	tri-
.	.	.	.	.	.	.	.	.	.	.	.	.	8a\	-bu-	-bu-
=68-	=68-	=68-	=68-	=68-	=68-	=68-	=68-	=68-	=68-	=68-	=68-	=68-	=68-	=68-	=68-
2AA/	#	.	2e/	.	2.a\	.	.	.	.	.	.	.	8.c#X/	-la-	-la-
.	.	.	.	.	.	.	.	.	.	.	.	.	16c#/	-ti-	-ti-
.	.	.	.	.	.	.	.	.	.	.	.	.	4c#/	-o	-o
2BB-/	7	.	2d/	.	.	.	.	.	.	.	.	.	4d\	pro-	pro-
.	6	.	.	.	4g/	.	.	.	.	.	.	.	8d\	-xi-	-xi-
.	.	.	.	.	.	.	.	.	.	.	.	.	8e\	-ma	-ma
=69-	=69-	=69-	=69-	=69-	=69-	=69-	=69-	=69-	=69-	=69-	=69-	=69-	=69-	=69-	=69-
2.AA/	5	.	2e/	.	1a	.	0ryy	.	.	0ryy	.	.	4c#X/	est	est
.	.	.	.	.	.	.	.	.	.	.	.	.	8.e\	et	et
.	.	.	.	.	.	.	.	.	.	.	.	.	16e\	non	non
.	6 #	.	4r	.	.	.	.	.	.	.	.	.	4f\	est	est
8AA/L	.	.	8c#X/L	.	.	.	.	.	.	.	.	.	4r	.	.
8AA/J	.	.	8c#/J	.	.	.	.	.	.	.	.	.	.	.	.
=70-	=70-	=70-	=70-	=70-	=70-	=70-	=70-	=70-	=70-	=70-	=70-	=70-	=70-	=70-	=70-
4BB-/	.	.	2d/	.	4f/	.	.	.	.	.	.	.	4r	.	.
8FF#X/L	6	.	.	.	8dd\L	.	.	.	.	.	.	.	8.a\	et	et
8FF#/J	.	.	.	.	8dd\J	.	.	.	.	.	.	.	.	.	.
.	.	.	.	.	.	.	.	.	.	.	.	.	16a\	non	non
[2GG/	.	.	2d/	.	2g,/	.	.	.	.	.	.	.	4.b-X\	est	est
.	.	.	.	.	.	.	.	.	.	.	.	.	8g\	qui	qui
=71-	=71-	=71-	=71-	=71-	=71-	=71-	=71-	=71-	=71-	=71-	=71-	=71-	=71-	=71-	=71-
4GG/]	2	.	4e/	.	2.a\	.	0ryy	.	.	0ryy	.	.	16c#X/LL	ad-	ad-
.	.	.	.	.	.	.	.	.	.	.	.	.	16B-y/J	.	.
.	.	.	.	.	.	.	.	.	.	.	.	.	8A/J	.	.
8FFny/L	6	.	4f/	.	.	.	.	.	.	.	.	.	2d\	.	.
8GG/J	.	.	.	.	.	.	.	.	.	.	.	.	.	.	.
2AA/	4 3	.	4e/	.	.	.	.	.	.	.	.	.	.	.	.
.	.	.	8e/L	.	4a\	.	.	.	.	.	.	.	4c#X/	-iu-	-iu-
.	.	.	8e/J	.	.	.	.	.	.	.	.	.	.	.	.
=72-	=72-	=72-	=72-	=72-	=72-	=72-	=72-	=72-	=72-	=72-	=72-	=72-	=72-	=72-	=72-
2D/	-	.	2f/	.	4a\	.	.	.	.	.	.	.	2d\	-vet.	-vet.
.	.	.	.	.	8a\L	.	.	.	.	.	.	.	.	.	.
.	.	.	.	.	8a\J	.	.	.	.	.	.	.	.	.	.
4GG/	.	.	4g/	.	4b-\	.	.	.	.	.	.	.	2r	.	.
4AA/	# 5	.	4.cc\	.	8f#X/L	.	.	.	.	.	.	.	.	.	.
.	.	.	.	.	8f#/J	.	.	.	.	.	.	.	.	.	.
=73-	=73-	=73-	=73-	=73-	=73-	=73-	=73-	=73-	=73-	=73-	=73-	=73-	=73-	=73-	=73-
!	!	!	!	!	!	!	!	!	!	!	!	!	!LO:TX:a:t=5.:mod=	!	!
2GG/	6 4	.	.	.	4g/	.	0ryy	.	.	0ryy	.	.	00r	.	.
.	x 3	.	8b-\	.	.	.	.	.	.	.	.	.	.	.	.
.	.	.	4b-\	.	8d/L	.	.	.	.	.	.	.	.	.	.
.	.	.	.	.	8d/J	.	.	.	.	.	.	.	.	.	.
2GG/	6 #3	.	2g/	.	4e-X/	.	.	.	.	.	.	.	.	.	.
!	!	!	!	!	!LO:N:acc=#	!	!	!	!	!	!	!	!	!	!
.	.	.	.	.	8Bn/L	.	.	.	.	.	.	.	.	.	.
.	.	.	.	.	8B/J	.	.	.	.	.	.	.	.	.	.
=74-	=74-	=74-	=74-	=74-	=74-	=74-	=74-	=74-	=74-	=74-	=74-	=74-	=74-	=74-	=74-
2AA/	#	.	4r	.	2c#X/	.	.	.	.	.	.	.	.	.	.
.	.	.	8a\L	.	.	.	.	.	.	.	.	.	.	.	.
.	.	.	8a\J	.	.	.	.	.	.	.	.	.	.	.	.
*	*	*	*	*	*custos:dd	*	*	*	*	*	*	*	*	*	*
!	!	!	!	!	!LO:LB:g=original	!	!	!	!	!	!	!	!	!	!
2D/	-	.	2f/	.	4r	.	.	.	.	.	.	.	.	.	.
.	.	.	.	.	8dd\L	.	.	.	.	.	.	.	.	.	.
.	.	.	.	.	8dd,\J	.	.	.	.	.	.	.	.	.	.
=75-	=75-	=75-	=75-	=75-	=75-	=75-	=75-	=75-	=75-	=75-	=75-	=75-	=75-	=75-	=75-
1GG	5	.	4.g/	.	4.b-\	.	0ryy	.	.	0ryy	.	.	.	.	.
.	.	.	8f/	.	8a\	.	.	.	.	.	.	.	.	.	.
.	6	.	4e/	.	4g/	.	.	.	.	.	.	.	.	.	.
.	.	.	4d/	.	4fny,/	.	.	.	.	.	.	.	.	.	.
=76-	=76-	=76-	=76-	=76-	=76-	=76-	=76-	=76-	=76-	=76-	=76-	=76-	=76-	=76-	=76-
!	!	!	!LO:TX:b:t=P:problem:# below	!	!	!	!	!	!	!	!	!	!	!	!
1AA	# 3	.	8c#X/L	.	2.eny/	.	.	.	.	.	.	.	.	.	.
.	.	.	8A/J	.	.	.	.	.	.	.	.	.	.	.	.
.	5 4	.	2d/	.	.	.	.	.	.	.	.	.	.	.	.
!	!	!	!LO:TX:b:t=P:problem:# below	!	!	!	!	!	!	!	!	!	!	!	!
.	# 3	.	4c#X/	.	4e/	.	.	.	.	.	.	.	.	.	.
=77-	=77-	=77-	=77-	=77-	=77-	=77-	=77-	=77-	=77-	=77-	=77-	=77-	=77-	=77-	=77-
1D;	.	.	1d;	.	1f#X;	.	1ryy	.	.	1ryy	.	.	1r	.	.
*	*	*	*	*	*	*	*	*	*	*	*	*	*custos:d	*	*
!LO:LB:g=original	!	!	!LO:LB:g=original	!	!	!	!	!	!	!	!	!	!LO:LB:g=original	!	!
=78||-	=78||-	=78||-	=78||-	=78||-	=78||-	=78||-	=78||-	=78||-	=78||-	=78||-	=78||-	=78||-	=78||-	=78||-	=78||-
!!!OMD:
!!!OMD-mod: Allegro
*>B	*	*>B	*>B	*>B	*>B	*	*>B	*>B	*>B	*>B	*>B	*>B	*>B	*>B	*>B
!	!	!	!LO:MO:mod=*null:null	!	!LO:MO:mod=*null:null	!	!	!	!	!	!	!	!	!	!
*	*	*	*clefG2	*	*clefG2	*	*	*	*	*	*	*	*	*	*
!	!	!	!LO:MO:mod=*null:null	!	!LO:MO:mod=*null:null	!	!	!	!	!	!	!	!	!	!
*	*	*	*k[b-]	*	*k[b-]	*	*	*	*	*	*	*	*	*	*
*M3/2	*	*	*M3/2	*	*M3/2	*	*M3/2	*	*	*M3/2	*	*	*M3/2	*	*
*all\right	*	*	*	*	*	*	*	*	*	*	*	*	*	*	*
!LO:TX:a:rj:t=+:mod=	!	!	!LO:TX:a:rj:t=+:mod=	!	!LO:TX:a:rj:t=+:mod=	!	!LO:TX:a:rj:t=+:mod=	!	!	!LO:TX:a:rj:t=+:mod=	!	!	!LO:TX:a:rj:t=+:mod=	!	!
!LO:TX:b:t=Exurge a 5:mod=	!	!	!LO:TX:b:t=Exurge Domine:mod=	!	!LO:TX:b:t=Exurge Domine:mod=	!	!	!	!	!	!	!	!LO:TX:a:t=allegro:mod=	!	!
2BB-/	.	.	1b-	.	1ff	.	2BB-/	E-	E-	2B-\	E-	E-	2d\	E-	E-
2D/	6	.	.	.	.	.	2D/	-xur-	-xur-	2B-\	-xur-	-xur-	2d\	-xur-	-xur-
*2\right	*	*	*	*	*	*	*	*	*	*	*	*	*	*	*
2F\	.	.	2cc\	.	2ff\	.	2F\	-ge	-ge	2A/	-ge	-ge	2cny/	-ge	-ge
=79-	=79-	=79-	=79-	=79-	=79-	=79-	=79-	=79-	=79-	=79-	=79-	=79-	=79-	=79-	=79-
1.BB-	.	.	1.b-	.	1.ff	.	2.BB-/	Do-	Do-	2.B-\	Do-	Do-	2.d\	Do-	Do-
.	.	.	.	.	.	.	4BB-/	-mi-	-mi-	4B-\	-mi-	-mi-	4d\	-mi-	-mi-
.	.	.	.	.	.	.	2BB-/	-ne	-ne	2B-\	-ne	-ne	2d\	-ne	-ne
=80-	=80-	=80-	=80-	=80-	=80-	=80-	=80-	=80-	=80-	=80-	=80-	=80-	=80-	=80-	=80-
*	*	*	*	*	*	*	*	*ij	*ij	*	*ij	*ij	*	*	*
2FF/	.	.	1cc	.	1ff	.	2FF/	e-	e-	2A/	e-	e-	2f\	e-	e-
2AA/	6	.	.	.	.	.	2AA/	-xur-	-xur-	2A/	-xur-	-xur-	2f\	-xur-	-xur-
2C/	.	.	2cc\	.	2gg\	.	2C/	-ge	-ge	2G/	-ge	-ge	2e\	-ge	-ge
=81-	=81-	=81-	=81-	=81-	=81-	=81-	=81-	=81-	=81-	=81-	=81-	=81-	=81-	=81-	=81-
1.FF	.	.	1.cc	.	1.ff	.	2.FF/	Do-	Do-	2.A/	Do-	Do-	2.f\	do-	do-
.	.	.	.	.	.	.	4FF/	-mi-	-mi-	4A/	-mi-	-mi-	4f\	-mi-	-mi-
.	.	.	.	.	.	.	2FF/	-ne	-ne	2A/	-ne	-ne	2f\	-ne	-ne
*	*	*	*	*	*	*	*	*Xij	*Xij	*	*Xij	*Xij	*	*	*
=82-	=82-	=82-	=82-	=82-	=82-	=82-	=82-	=82-	=82-	=82-	=82-	=82-	=82-	=82-	=82-
!!!OMD:
!!!OMD-mod: Adagio
*M2/2	*	*	*M2/2	*	*M2/2	*	*M2/2	*	*	*M2/2	*	*	*M2/2	*	*
*met(c)	*	*	*met(c)	*	*met(c)	*	*met(c)	*	*	*met(c)	*	*	*met(c)	*	*
*mmet(c)	*	*	*mmet(c)	*	*mmet(c)	*	*mmet(c)	*	*	*mmet(c)	*	*	*mmet(c)	*	*
2FF/	.	.	2r	.	2r	.	8r	.	.	8r	.	.	8r	.	.
!	!	!	!	!	!	!	!LO:TX:a:t=adagio:mod=	!	!	!LO:TX:b:t=adagio:mod=	!	!	!LO:TX:b:t=adagio:mod=	!	!
.	.	.	.	.	.	.	8F\	in	in	8f\	in	in	8a\	in	in
.	.	.	.	.	.	.	8F\	ad-	ad-	8f\	ad-	ad-	8a\	ad-	ad-
.	.	.	.	.	.	.	8F\	-iu-	-iu-	8f\	-iu-	-iu-	8a\	-iu-	-iu-
!LO:TX:b:t=adagio:mod=	!	!	!	!	!	!	!LO:N:acc=#	!	!	!	!	!	!	!	!
!LO:N:acc=#	!	!	!	!	!	!	!	!	!	!	!	!	!	!	!
2BBn/	6 -5	.	8r	.	8r	.	4.BBn/	-to-	-to-	4.f\	-to-	-to-	4.g\	-to-	-to-
!	!	!	!LO:TX:b:t=adagio:mod=	!	!LO:TX:a:t=adagio:mod=	!	!	!	!	!	!	!	!	!	!
.	.	.	8dd\L	.	8ff\L	.	.	.	.	.	.	.	.	.	.
.	.	.	8dd\	.	8ff\	.	.	.	.	.	.	.	.	.	.
!	!	!	!	!	!LO:TX:t=P:problem:kreska pseudotaktowa	!	!	!	!	!	!	!	!	!	!
.	.	.	8dd\J	.	8ff\J	.	8BB/	-ri-	-ri-	8d\	-ri-	-ri-	8g\	-ri-	-ri-
*	*	*	*	*	*	*	*custos:C	*	*	*custos:G	*	*	*	*	*
!	!	!	!	!	!	!	!LO:LB:g=original	!	!	!LO:LB:g=original	!	!	!	!	!
=83-	=83-	=83-	=83-	=83-	=83-	=83-	=83-	=83-	=83-	=83-	=83-	=83-	=83-	=83-	=83-
2C/	9 -	.	4dd\	.	2ee-X\	.	8C/	-um	-um	8G/	-um	-um	8g\	-um	-um
*	*	*	*	*	*	*	*	*ij	*ij	*	*ij	*ij	*	*ij	*ij
.	.	.	.	.	.	.	8C/	in	in	8c\	in	in	8e-X\	in	in
.	8	.	4cc\	.	.	.	8C/	ad-	ad-	8c\	ad-	ad-	8e-\	ad-	ad-
.	.	.	.	.	.	.	8C/	-iu-	-iu-	8c\	-iu-	-iu-	8e-\	-iu-	-iu-
4.D/	8 7	.	4r	.	4.ff\	.	4D/	-to-	-to-	4c\	-to-	-to-	4d\	-to-	-to-
!	!	!	!LO:TX:t=P:problem:kreska pseudotaktowa	!	!	!	!	!	!	!	!	!	!	!	!
.	x 6	.	4b-/	.	.	.	8D/	-ri-	-ri-	8B-\	-ri-	-ri-	8d\	-ri-	-ri-
!LO:TX:a:t=P:problem:♭ above	!	!	!	!	!	!	!	!	!	!	!	!	!	!	!
8E-X\	.	.	.	.	8gg\	.	8E-X\	-um	-um	8B-\	-um	-um	8c/	-um	-um
*	*	*	*	*	*	*	*	*Xij	*Xij	*	*Xij	*Xij	*custos:c	*Xij	*Xij
!	!	!	!	!	!	!	!	!	!	!	!	!	!LO:LB:g=original	!	!
=84-	=84-	=84-	=84-	=84-	=84-	=84-	=84-	=84-	=84-	=84-	=84-	=84-	=84-	=84-	=84-
2F\	4	.	8f/L	.	4.ff\	.	(4F\	nos-	nos-	4.B-\	nos-	nos-	2c/	nos-	nos-
.	.	.	8cc/J	.	.	.	.	.	.	.	.	.	.	.	.
.	.	.	4cc\	.	.	.	4FF/)	.	.	.	.	.	.	.	.
.	3	.	.	.	8ff\	.	.	.	.	(<8A/	-trum	-trum	.	.	.
4BB-y/	.	.	8b-/L	.	8ff\L	.	8BB-/	-tru(m)	-trum	2B-\)	.	.	2d\	-trum	-trum
.	.	.	8b-/	.	8dd\	.	8B-\	in	in	.	.	.	.	.	.
4B-\	.	.	8b-/	.	8dd\	.	8B-\	ad-	ad-	.	.	.	.	.	.
!	!	!	!	!	!LO:TX:t=P:problem:cezura dopisana ołówkiem	!	!	!	!	!	!	!	!	!	!
.	.	.	8b-/J	.	8dd,\J	.	8B-\	-iu-	-iu-	.	.	.	.	.	.
=85-	=85-	=85-	=85-	=85-	=85-	=85-	=85-	=85-	=85-	=85-	=85-	=85-	=85-	=85-	=85-
2F#X\	.	.	4.a/	.	4.dd\	.	4.F#X\	-to-	-to-	2r	.	.	2r	.	.
.	.	.	8a/	.	8dd\	.	8F#\	-ri-	-ri-	.	.	.	.	.	.
!	!	!	!	!	!LO:TX:t=P:problem:cezura dopisana ołówkiem	!	!	!	!	!	!	!	!	!	!
[2G\	.	.	2b-/	.	2dd,\	.	8G\	-um	-um	8r	.	.	8r	.	.
*	*	*	*	*	*	*	*	*ij	*ij	*	*	*	*	*	*
!	!	!	!	!	!	!	!	!	!	!	!	!	!LO:TX:b:t=adagio:mod=	!	!
.	.	.	.	.	.	.	8G\	in	in	8B-\	in	in	8g\	in	in
.	.	.	.	.	.	.	8G\	ad-	ad-	8B-\	ad-	ad-	8g\	ad-	ad-
.	.	.	.	.	.	.	8G\	-iu-	-iu-	8B-\	-iu-	-iu-	8g\	-iu-	-iu-
=86-	=86-	=86-	=86-	=86-	=86-	=86-	=86-	=86-	=86-	=86-	=86-	=86-	=86-	=86-	=86-
2G\]	6 #4 2	.	2g/	.	2eeny\	.	4.G\	-to-	-to-	4.A/	-to-	-to-	4.c#X/	-to-	-to-
.	.	.	.	.	.	.	8G\	-ri-	-ri-	8A/	-ri-	-ri-	8c#/	-ri-	-ri-
4.Fny\	6	.	[2a/	.	4.ff\	.	(4.Fny\	-um	-um	2d\	-um	-um	2f\	-um	-um
*	*	*	*	*	*	*	*	*Xij	*Xij	*	*	*	*	*	*
!	!	!	!	!	!LO:TX:t=P:problem:cezura dopisana ołówkiem	!	!	!	!	!	!	!	!	!	!
8G\	.	.	.	.	8bb-,\	.	8G\)	.	.	.	.	.	.	.	.
=87-	=87-	=87-	=87-	=87-	=87-	=87-	=87-	=87-	=87-	=87-	=87-	=87-	=87-	=87-	=87-
2A\	4	.	2a/]	.	2aa\	.	(4A\	no-	no-	4.d\	no-	no-	2eny\	no-	no-
.	.	.	.	.	.	.	4AA/)	.	.	.	.	.	.	.	.
.	3	.	.	.	.	.	.	.	.	(8c#X\	-strum	-strum	.	.	.
!	!	!	!LO:TX:b:t=P:problem:# below	!	!	!	!	!	!	!	!	!	!	!	!
[2D/	#	.	2f#X/	.	2aa\	.	2D/	-strum	-strum	4d\)	.	.	4f#X\	-stru(m)	-strum
!!!OMD:
!!!OMD-mod: Allegro
.	.	.	.	.	.	.	.	.	.	4r	.	.	8d\	et	et
.	.	.	.	.	.	.	.	.	.	.	.	.	8d\	lae-	lae-
=88-	=88-	=88-	=88-	=88-	=88-	=88-	=88-	=88-	=88-	=88-	=88-	=88-	=88-	=88-	=88-
4D/]	2	.	00r	.	00r	.	1r	.	.	2r	.	.	8.e\	-ta-	-ta-
.	.	.	.	.	.	.	.	.	.	.	.	.	16fny\	-bi-	-bi-
!LO:TX:b:t=allegro:mod=	!	!	!	!	!	!	!	!	!	!	!	!	!	!	!
4C#X/	6	.	.	.	.	.	.	.	.	.	.	.	8g\	-tur	-tur
.	.	.	.	.	.	.	.	.	.	.	.	.	8a\	cor	cor
4D/	.	.	.	.	.	.	.	.	.	4r	.	.	16f#X\LL	no-	no-
.	.	.	.	.	.	.	.	.	.	.	.	.	16e\	.	.
.	.	.	.	.	.	.	.	.	.	.	.	.	16f#\	.	.
.	.	.	.	.	.	.	.	.	.	.	.	.	16d\JJ	.	.
!LO:TX:t=P:problem:kreska pseudotaktowa	!	!	!	!	!	!	!	!	!	!LO:TX:b:t=allegro:mod=	!	!	!	!	!
4BB-/	.	.	.	.	.	.	.	.	.	8G/	et	et	2g\	.	.
.	.	.	.	.	.	.	.	.	.	8G/	lae-	lae-	.	.	.
*	*	*	*	*	*	*	*custos:GG	*	*	*custos:A	*	*	*	*	*
!	!	!	!	!	!	!	!LO:LB:g=original	!	!	!LO:LB:g=original	!	!	!	!	!
=89-	=89-	=89-	=89-	=89-	=89-	=89-	=89-	=89-	=89-	=89-	=89-	=89-	=89-	=89-	=89-
2AA/	7	.	.	.	.	.	2r	.	.	8.A/	-ta-	-ta-	.	.	.
.	.	.	.	.	.	.	.	.	.	16B-\	-bi-	-bi-	.	.	.
.	6	.	.	.	.	.	.	.	.	8cny\	-tur	-tur	(4f#X\	-strum	-strum
.	.	.	.	.	.	.	.	.	.	8d\	cor	cor	.	.	.
[2GG/	.	.	.	.	.	.	4r	.	.	8B-\	no-	no-	4g\)	.	.
.	.	.	.	.	.	.	.	.	.	8G/	-stru(m)	-strum	.	.	.
!	!	!	!	!	!	!	!LO:TX:a:t=allegro:mod=	!	!	!	!	!	!	!	!
.	.	.	.	.	.	.	8GG/	et	et	8r	.	.	8r	.	.
.	.	.	.	.	.	.	8GG/	lae-	lae-	8B-\	lae-	lae-	8d\	lae-	lae-
*	*	*	*	*	*	*	*	*	*	*	*	*	*custos:c	*	*
!	!	!	!	!	!	!	!	!	!	!	!	!	!LO:LB:g=original	!	!
=90-	=90-	=90-	=90-	=90-	=90-	=90-	=90-	=90-	=90-	=90-	=90-	=90-	=90-	=90-	=90-
4GG/]	2	.	.	.	.	.	8.AA/	-ta-	-ta-	4.A/	-ta-	-ta-	4.cny/	-ta-	-ta-
.	.	.	.	.	.	.	16BB-/	-bi-	-bi-	.	.	.	.	.	.
4FF#X/	6	.	.	.	.	.	8C/	-tur	-tur	.	.	.	.	.	.
.	.	.	.	.	.	.	8D/	cor	cor	8A/	-bi-	-bi-	8B-/	-bi-	-bi-
4GG/	.	.	.	.	.	.	8BB-/	no-	no-	4G/	-tur	-tur	4B-/	-tur	-tur
.	.	.	.	.	.	.	8GG/	-stru(m)	-strum	.	.	.	.	.	.
4G\	.	.	.	.	.	.	16G\LL	lae-	lae-	8r	.	.	8r	.	.
.	.	.	.	.	.	.	16F\	.	.	.	.	.	.	.	.
*	*	*	*	*	*	*	*	*	*	*	*ij	*ij	*	*ij	*ij
.	.	.	.	.	.	.	16G\	.	.	8B-\	lae-	lae-	8d/	lae-	lae-
.	.	.	.	.	.	.	16F\JJ	.	.	.	.	.	.	.	.
=91-	=91-	=91-	=91-	=91-	=91-	=91-	=91-	=91-	=91-	=91-	=91-	=91-	=91-	=91-	=91-
4Eny\	6 -5	.	.	.	.	.	8.Eny\	-ta-	-ta-	8.B-\	-ta-	-ta-	8.c/	-ta-	-ta-
.	.	.	.	.	.	.	16E\	-bi-	-bi-	16A/	-bi-	-bi-	16c/	-bi-	-bi-
!LO:TX:t=P:problem:mixed beam	!	!	!	!	!	!	!	!	!	!	!	!	!	!	!
8F\L	.	.	.	.	.	.	8F\	-tur	-tur	8A/	-tur	-tur	8c/	-tur	-tur
8AA/J	6	.	.	.	.	.	8AA/	lae-	lae-	8c\	lae-	lae-	8fny\	lae-	lae-
8BB-/L	.	.	.	.	.	.	8.BB-/	-ta-	-ta-	8.B-\	-ta-	-ta-	8.d\	-ta-	-ta-
8Cny/	.	.	.	.	.	.	.	.	.	.	.	.	.	.	.
.	.	.	.	.	.	.	16C/	-bi-	-bi-	16A/	-bi-	-bi-	16e\	-bi-	-bi-
8D/	.	.	.	.	.	.	8D/	-tur	-tur	8A/	-tur	-tur	8f\	-tur	-tur
*	*	*	*	*	*	*	*	*	*	*	*Xij	*Xij	*	*Xij	*Xij
8BB-/J	.	.	.	.	.	.	8BB-/	cor	cor	8d\	cor	cor	8f\	cor	cor
=92-	=92-	=92-	=92-	=92-	=92-	=92-	=92-	=92-	=92-	=92-	=92-	=92-	=92-	=92-	=92-
2C/	4	.	2r	.	1r	.	16C/LL	nos-	nos-	2G/	nos-	nos-	4.f\	nos-	nos-
.	.	.	.	.	.	.	16BB-/	.	.	.	.	.	.	.	.
.	.	.	.	.	.	.	16C/	.	.	.	.	.	.	.	.
.	.	.	.	.	.	.	16D/JJ	.	.	.	.	.	.	.	.
.	.	.	.	.	.	.	4C/	-tru(m)	-trum	.	.	.	.	.	.
.	3	.	.	.	.	.	.	.	.	.	.	.	8e\	.	.
4FFny/	.	.	4r	.	.	.	2FF/	.	.	2A/	-trum	-trum	2f\	-trum	-trum
!	!	!	!LO:TX:b:t=allegro:mod=	!	!	!	!	!	!	!	!	!	!	!	!
2F\	2	.	8fny/L	.	.	.	.	.	.	.	.	.	.	.	.
!	!	!	!LO:TX:t=P:problem:kreska pseudotaktowa	!	!	!	!	!	!	!	!	!	!	!	!
.	.	.	8f/J	.	.	.	.	.	.	.	.	.	.	.	.
=93-	=93-	=93-	=93-	=93-	=93-	=93-	=93-	=93-	=93-	=93-	=93-	=93-	=93-	=93-	=93-
!	!	!	!	!	!	!	!LO:TX:a:t=6.	!	!	!LO:TX:a:t=5	!	!	!LO:TX:a:t=7.	!	!
.	.	.	8.g/L	.	2r	.	00r	.	.	00r	.	.	00r	.	.
.	.	.	16a/K	.	.	.	.	.	.	.	.	.	.	.	.
4E\	6	.	8b-/	.	.	.	.	.	.	.	.	.	.	.	.
.	.	.	8cc/J	.	.	.	.	.	.	.	.	.	.	.	.
!LO:LB:g=original	!	!	!	!	!	!	!	!	!	!	!	!	!	!	!
4.F\	.	.	8a/L	.	4r	.	.	.	.	.	.	.	.	.	.
.	.	.	8f/	.	.	.	.	.	.	.	.	.	.	.	.
!	!	!	!	!	!LO:TX:b:t=allegro:mod=	!	!	!	!	!	!	!	!	!	!
.	.	.	8a/	.	8cc\L	.	.	.	.	.	.	.	.	.	.
!LO:TX:t=P:problem:kreska pseudotaktowa	!	!	!LO:TX:t=P:problem:kreska pseudotaktowa	!	!	!	!	!	!	!	!	!	!	!	!
8E\	.	.	8g/J	.	8cc\J	.	.	.	.	.	.	.	.	.	.
!	!	!	!	!	!LO:LB:g=original	!	!	!	!	!	!	!	!	!	!
=94-	=94-	=94-	=94-	=94-	=94-	=94-	=94-	=94-	=94-	=94-	=94-	=94-	=94-	=94-	=94-
2D/	7	.	8.f/L	.	8.dd\L	.	.	.	.	.	.	.	.	.	.
.	.	.	16g/K	.	16ee\K	.	.	.	.	.	.	.	.	.	.
.	.	.	8a/	.	8ff\	.	.	.	.	.	.	.	.	.	.
!	!	!	!LO:TX:b:t=P:problem:# below	!	!	!	!	!	!	!	!	!	!	!	!
!	!	!	!LO:N:acc=#	!	!	!	!	!	!	!	!	!	!	!	!
.	6\	.	8bn/J	.	8gg\J	.	.	.	.	.	.	.	.	.	.
4C/	.	.	4.cc\	.	8ee\L	.	.	.	.	.	.	.	.	.	.
.	.	.	.	.	8cc\	.	.	.	.	.	.	.	.	.	.
4AA/	6	.	.	.	8ff\	.	.	.	.	.	.	.	.	.	.
!	!	!	!	!	!LO:TX:t=P:problem:kreska pseudotaktowa	!	!	!	!	!	!	!	!	!	!
.	.	.	8cc\	.	8ff\J	.	.	.	.	.	.	.	.	.	.
*	*	*	*custos:b	*	*	*	*	*	*	*	*	*	*	*	*
!	!	!	!LO:LB:g=original	!	!	!	!	!	!	!	!	!	!	!	!
=95-	=95-	=95-	=95-	=95-	=95-	=95-	=95-	=95-	=95-	=95-	=95-	=95-	=95-	=95-	=95-
!	!	!	!LO:SIC:v:o=8b/L	!	!	!	!	!	!	!	!	!	!	!	!
4BB-/	.	.	8b-L	.	4.ff\	.	.	.	.	.	.	.	.	.	.
.	.	.	8a/	.	.	.	.	.	.	.	.	.	.	.	.
4C/	.	.	8g/	.	.	.	.	.	.	.	.	.	.	.	.
.	.	.	8g/J	.	8ee\	.	.	.	.	.	.	.	.	.	.
2FF/	.	.	16a/LL	.	16ff\LL	.	.	.	.	.	.	.	.	.	.
.	.	.	16g/	.	16ee\	.	.	.	.	.	.	.	.	.	.
.	.	.	16a/	.	16ff\	.	.	.	.	.	.	.	.	.	.
!	!	!	!LO:SIC:v:o=16b/JJ	!	!	!	!	!	!	!	!	!	!	!	!
.	.	.	16b-JJ	.	16gg\JJ	.	.	.	.	.	.	.	.	.	.
!	!	!	!	!	!LO:TX:t=P:problem:kreska pseudotaktowa dopisana ołówkiem	!	!	!	!	!	!	!	!	!	!
.	.	.	8a/L	.	4ff\	.	.	.	.	.	.	.	.	.	.
!	!	!	!LO:TX:t=P:problem:kreska pseudotaktowa	!	!	!	!	!	!	!	!	!	!	!	!
.	.	.	8a/J	.	.	.	.	.	.	.	.	.	.	.	.
=96-	=96-	=96-	=96-	=96-	=96-	=96-	=96-	=96-	=96-	=96-	=96-	=96-	=96-	=96-	=96-
2C/	.	.	16g/LL	.	4.ee\	.	.	.	.	.	.	.	.	.	.
.	.	.	16a/	.	.	.	.	.	.	.	.	.	.	.	.
.	.	.	16b-y/	.	.	.	.	.	.	.	.	.	.	.	.
.	.	.	16cc/JJ	.	.	.	.	.	.	.	.	.	.	.	.
.	.	.	16e/LL	.	.	.	.	.	.	.	.	.	.	.	.
.	.	.	16f/	.	.	.	.	.	.	.	.	.	.	.	.
.	.	.	16g/	.	8ee\	.	.	.	.	.	.	.	.	.	.
.	.	.	16a/JJ	.	.	.	.	.	.	.	.	.	.	.	.
2D/	.	.	16f/LL	.	4ff\	.	.	.	.	.	.	.	.	.	.
.	.	.	16a/	.	.	.	.	.	.	.	.	.	.	.	.
.	.	.	16g/	.	.	.	.	.	.	.	.	.	.	.	.
.	.	.	16a/JJ	.	.	.	.	.	.	.	.	.	.	.	.
.	.	.	16f/LL	.	8r	.	.	.	.	.	.	.	.	.	.
.	.	.	16g/	.	.	.	.	.	.	.	.	.	.	.	.
!	!	!	!	!	!LO:TX:t=P:problem:kreska pseudotaktowa	!	!	!	!	!	!	!	!	!	!
.	.	.	16a/	.	8ff\	.	.	.	.	.	.	.	.	.	.
!	!	!	!LO:TX:t=P:problem:kreska pseudotaktowa	!	!	!	!	!	!	!	!	!	!	!	!
!	!	!	!LO:TX:b:t=P:problem:# below	!	!	!	!	!	!	!	!	!	!	!	!
!	!	!	!LO:N:acc=#	!	!	!	!	!	!	!	!	!	!	!	!
.	.	.	16bn/JJ	.	.	.	.	.	.	.	.	.	.	.	.
=97-	=97-	=97-	=97-	=97-	=97-	=97-	=97-	=97-	=97-	=97-	=97-	=97-	=97-	=97-	=97-
2AA/	.	.	8.cc\L	.	16ee\LL	.	0r	.	.	1r	.	.	0r	.	.
.	.	.	.	.	16ff\	.	.	.	.	.	.	.	.	.	.
.	.	.	.	.	16gg\	.	.	.	.	.	.	.	.	.	.
.	.	.	16cc\Jk	.	16aa\JJ	.	.	.	.	.	.	.	.	.	.
.	.	.	16a\LL	.	16cc\LL	.	.	.	.	.	.	.	.	.	.
!	!	!	!LO:SIC:v:o=16b\	!	!	!	!	!	!	!	!	!	!	!	!
.	.	.	16b-	.	16dd\	.	.	.	.	.	.	.	.	.	.
.	.	.	16cc\	.	16ee\	.	.	.	.	.	.	.	.	.	.
.	.	.	16dd\JJ	.	16ff\JJ	.	.	.	.	.	.	.	.	.	.
!	!	!	!LO:SIC:v:o=16b\LL	!	!	!	!	!	!	!	!	!	!	!	!
2BB-/	.	.	16b-LL	.	16dd\LL	.	.	.	.	.	.	.	.	.	.
.	.	.	16cc\	.	16ee\	.	.	.	.	.	.	.	.	.	.
.	.	.	16dd\	.	16ff\	.	.	.	.	.	.	.	.	.	.
.	.	.	16cc\JJ	.	16ee\JJ	.	.	.	.	.	.	.	.	.	.
!	!	!	!LO:SIC:v:o=16b\LL	!	!	!	!	!	!	!	!	!	!	!	!
.	.	.	16b-LL	.	16dd\LL	.	.	.	.	.	.	.	.	.	.
.	.	.	16a\	.	16cc\	.	.	.	.	.	.	.	.	.	.
.	.	.	16g\	.	16b-\	.	.	.	.	.	.	.	.	.	.
!	!	!	!LO:TX:t=P:problem:kreska pseudotaktowa	!	!LO:TX:t=P:problem:kreska pseudotaktowa	!	!	!	!	!	!	!	!	!	!
.	.	.	16f\JJ	.	16a\JJ	.	.	.	.	.	.	.	.	.	.
=98-	=98-	=98-	=98-	=98-	=98-	=98-	=98-	=98-	=98-	=98-	=98-	=98-	=98-	=98-	=98-
4C/	.	.	16e/LL	.	16g/LL	.	.	.	.	2r	.	.	.	.	.
.	.	.	16f/	.	16a/	.	.	.	.	.	.	.	.	.	.
.	.	.	16e/	.	16g/	.	.	.	.	.	.	.	.	.	.
.	.	.	16f/JJ	.	16a/JJ	.	.	.	.	.	.	.	.	.	.
4.GG/	.	.	16g/LL	.	16b-/LL	.	.	.	.	.	.	.	.	.	.
.	.	.	16a/	.	16cc/	.	.	.	.	.	.	.	.	.	.
.	.	.	16g/	.	16b-/	.	.	.	.	.	.	.	.	.	.
.	.	.	16a/JJ	.	16cc/JJ	.	.	.	.	.	.	.	.	.	.
.	.	.	8b-y/L	.	8dd\L	.	.	.	.	4r	.	.	.	.	.
8C/	.	.	16a/L	.	16cc\L	.	.	.	.	.	.	.	.	.	.
.	.	.	16g/JJ	.	16b-\JJ	.	.	.	.	.	.	.	.	.	.
4D/	4	.	8.g/L	.	8.a/L	.	.	.	.	8r	.	.	.	.	.
.	.	.	.	.	.	.	.	.	.	8d\	lae-	lae-	.	.	.
!	!	!	!LO:TX:b:t=P:problem:# below	!	!	!	!	!	!	!	!	!	!	!	!
!	!	!	!LO:N:acc=#	!	!LO:TX:t=P:problem:kreska pseudotaktowa dopisana ołówkiem	!	!	!	!	!	!	!	!	!	!
.	3	.	16f#X/Jk	.	16a/Jk	.	.	.	.	.	.	.	.	.	.
*	*	*	*	*	*	*	*	*	*	*custos:B	*	*	*	*	*
!	!	!	!	!	!	!	!	!	!	!LO:LB:g=original	!	!	!	!	!
=99-	=99-	=99-	=99-	=99-	=99-	=99-	=99-	=99-	=99-	=99-	=99-	=99-	=99-	=99-	=99-
!	!	!	!	!	!LO:N:acc=#	!	!	!	!	!LO:N:acc=#	!	!	!	!	!
4GG/	#	.	4g/	.	4bn/	.	2r	.	.	16Bn\LL	-ta-	-ta-	1r	.	.
.	.	.	.	.	.	.	.	.	.	16c\	.	.	.	.	.
.	.	.	.	.	.	.	.	.	.	16d\	.	.	.	.	.
.	.	.	.	.	.	.	.	.	.	16e\JJ	.	.	.	.	.
4AA/	6\	.	4r	.	4r	.	.	.	.	16F#X/LL	.	.	.	.	.
.	.	.	.	.	.	.	.	.	.	16G/	.	.	.	.	.
.	.	.	.	.	.	.	.	.	.	16A/	.	.	.	.	.
!	!	!	!	!	!	!	!	!	!	!LO:TX:b:t=P:problem:♭ below	!	!	!	!	!
!	!	!	!	!	!	!	!	!	!	!LO:N:acc=#	!	!	!	!	!
!	!	!	!	!	!	!	!	!	!	!LO:SIC:o=16BnX/JJ	!	!	!	!	!
.	.	.	.	.	.	.	.	.	.	16BJJ	.	.	.	.	.
!LO:TX:t=P:problem:kreska pseudotaktowa	!	!	!	!	!LO:TX:t=P:problem:kreska pseudotaktowa	!	!	!	!	!	!	!	!	!	!
!LO:N:acc=#	!	!	!	!	!	!	!	!	!	!	!	!	!	!	!
2BBn/	6	.	2r	.	2r	.	4r	.	.	16G/LL	.	.	.	.	.
.	.	.	.	.	.	.	.	.	.	16A/	.	.	.	.	.
.	.	.	.	.	.	.	.	.	.	16G/	.	.	.	.	.
.	.	.	.	.	.	.	.	.	.	16A/JJ	.	.	.	.	.
!	!	!	!	!	!	!	!	!	!	!LO:N:acc=#	!	!	!	!	!
!	!	!	!	!	!	!	!	!	!	!LO:SIC:o=16BnX\LL	!	!	!	!	!
.	.	.	.	.	.	.	8r	.	.	16BLL	.	.	.	.	.
.	.	.	.	.	.	.	.	.	.	16d\	.	.	.	.	.
.	.	.	.	.	.	.	8G\	lae-	lae-	16c\	.	.	.	.	.
.	.	.	.	.	.	.	.	.	.	16B\JJ	.	.	.	.	.
*	*	*	*	*	*	*	*custos:E	*	*	*	*	*	*	*	*
!	!	!	!	!	!	!	!LO:LB:g=original	!	!	!	!	!	!	!	!
=100-	=100-	=100-	=100-	=100-	=100-	=100-	=100-	=100-	=100-	=100-	=100-	=100-	=100-	=100-	=100-
4C/	.	.	00r	.	00r	.	16E\LL	-ta-	-ta-	8.e\	.	.	4r	.	.
.	.	.	.	.	.	.	16F\	.	.	.	.	.	.	.	.
.	.	.	.	.	.	.	16G\	.	.	.	.	.	.	.	.
.	.	.	.	.	.	.	16A\JJ	.	.	16e\	-bi-	-bi-	.	.	.
!LO:N:acc=#	!	!	!	!	!	!	!LO:N:acc=#	!	!	!	!	!	!	!	!
4BBn/	6	.	.	.	.	.	16BBn/LL	.	.	8d\	-tur	-tur	8r	.	.
.	.	.	.	.	.	.	16C/	.	.	.	.	.	.	.	.
.	.	.	.	.	.	.	16D/	.	.	8d\	cor	cor	8g\	lae-	lae-
.	.	.	.	.	.	.	16E/JJ	.	.	.	.	.	.	.	.
4C/	.	.	.	.	.	.	8.C/	.	.	8c\	no-	no-	16e\LL	-ta-	-ta-
.	.	.	.	.	.	.	.	.	.	.	.	.	16f\	.	.
.	.	.	.	.	.	.	.	.	.	8c\	-stru(m)	-strum	16g\	.	.
.	.	.	.	.	.	.	16C/	-bi-	-bi-	.	.	.	16a\JJ	.	.
!	!	!	!	!	!	!	!	!	!	!	!	!	!LO:N:acc=#	!	!
4D/	6\	.	.	.	.	.	8D/	-tur	-tur	4r	.	.	16Bn/LL	.	.
.	.	.	.	.	.	.	.	.	.	.	.	.	16c/	.	.
.	.	.	.	.	.	.	8D/	cor	cor	.	.	.	16d/	.	.
.	.	.	.	.	.	.	.	.	.	.	.	.	16e/JJ	.	.
=101-	=101-	=101-	=101-	=101-	=101-	=101-	=101-	=101-	=101-	=101-	=101-	=101-	=101-	=101-	=101-
2E\	.	.	.	.	.	.	8E\	no-	no-	4r	.	.	16c/LL	.	.
.	.	.	.	.	.	.	.	.	.	.	.	.	16d/JJ	.	.
.	.	.	.	.	.	.	8E\	-stru(m)	-strum	.	.	.	(16c/LL	-bi-	-bi-
.	.	.	.	.	.	.	.	.	.	.	.	.	16d/JJ)	.	.
.	.	.	.	.	.	.	8r	.	.	8r	.	.	8e\	-tur	-tur
*	*	*	*	*	*	*	*	*ij	*ij	*	*	*	*	*	*
.	.	.	.	.	.	.	8E\	lae-	lae-	8G/	lae-	lae-	8cc\	lae-	lae-
*	*	*	*	*	*	*	*	*	*	*	*	*	*custos:a	*	*
!	!	!	!	!	!	!	!	!	!	!	!	!	!LO:LB:g=original	!	!
4F\	.	.	.	.	.	.	8.F\	-ta-	-ta-	8.A/	-ta-	-ta-	16a\LL	-ta-	-ta-
.	.	.	.	.	.	.	.	.	.	.	.	.	16b-\	.	.
.	.	.	.	.	.	.	.	.	.	.	.	.	16cc\	.	.
.	.	.	.	.	.	.	16F\	-bi-	-bi-	16A/	-bi-	-bi-	16dd\JJ	.	.
!LO:TX:t=P:problem:kreska pseudotaktowa	!	!	!	!	!	!	!	!	!	!	!	!	!	!	!
4G\	# 6 -	.	.	.	.	.	8.G\	-tur	-tur	8B-y\	-tur	-tur	16e\LL	.	.
.	.	.	.	.	.	.	.	.	.	.	.	.	16f\JJ	.	.
.	.	.	.	.	.	.	.	.	.	8B-\	cor	cor	(16g\LL	-bi-	-bi-
.	.	.	.	.	.	.	16G\	cor	cor	.	.	.	16a\JJ)	.	.
*	*	*	*	*	*	*	*	*	*	*custos:A	*	*	*	*	*
!	!	!	!	!	!	!	!	!	!	!LO:LB:g=original	!	!	!	!	!
=102-	=102-	=102-	=102-	=102-	=102-	=102-	=102-	=102-	=102-	=102-	=102-	=102-	=102-	=102-	=102-
4F\	.	.	.	.	.	.	8F\	no-	no-	8A/	no-	no-	8f\	-tur	-tur
.	.	.	.	.	.	.	8F\	-strum	-strum	16A/	-stru(m)	-strum	8a\	cor	cor
*	*	*	*	*	*	*	*	*Xij	*Xij	*	*	*	*	*	*
.	.	.	.	.	.	.	.	.	.	16f\	cor	cor	.	.	.
4A\	.	.	.	.	.	.	8r	.	.	16c\LL	no-	no-	16e\LL	no-	no-
.	.	.	.	.	.	.	.	.	.	16d\	.	.	16f\	.	.
.	.	.	.	.	.	.	8A\	cor	cor	16c\	.	.	16e\	.	.
.	.	.	.	.	.	.	.	.	.	16d\JJ	.	.	16f\JJ	.	.
4E\	6	.	.	.	.	.	16E\LL	nos-	no-	8e\L	.	.	8g\L	.	.
.	.	.	.	.	.	.	16F\	.	.	.	.	.	.	.	.
.	.	.	.	.	.	.	16E\	.	.	16d\L	.	.	16f\L	.	.
.	.	.	.	.	.	.	16F\JJ	.	.	16c\JJ	.	.	16e\JJ	.	.
!	!	!	!	!	!	!	!	!	!	!LO:N:acc=#	!	!	!	!	!
4G\	#	.	.	.	.	.	8G\L	.	.	16Bn\LL	.	.	16d\LL	.	.
.	.	.	.	.	.	.	.	.	.	16c\	.	.	16e\	.	.
.	.	.	.	.	.	.	16F\L	.	.	16B\	.	.	16d\	.	.
.	.	.	.	.	.	.	16E\JJ	.	.	16c\JJ	.	.	16e\JJ	.	.
*	*	*	*	*	*	*	*custos:D	*	*	*	*	*	*	*	*
!	!	!	!	!	!	!	!LO:LB:g=original	!	!	!	!	!	!	!	!
=103-	=103-	=103-	=103-	=103-	=103-	=103-	=103-	=103-	=103-	=103-	=103-	=103-	=103-	=103-	=103-
4D/	.	.	.	.	.	.	16D\LL	.	.	8d\L	.	.	8f\L	.	.
.	.	.	.	.	.	.	16E\	.	.	.	.	.	.	.	.
.	.	.	.	.	.	.	16D\	.	.	16c\L	.	.	16e\L	.	.
.	.	.	.	.	.	.	16E\JJ	.	.	16B\JJ	.	.	16d\JJ	.	.
4F\	.	.	.	.	.	.	8F\L	.	.	16A\LL	.	.	16c\LL	.	.
.	.	.	.	.	.	.	.	.	.	16B\	.	.	16d\	.	.
.	.	.	.	.	.	.	16E\L	.	.	16A\	.	.	16c\	.	.
.	.	.	.	.	.	.	16D\JJ	.	.	16B\JJ	.	.	16d\JJ	.	.
4C/	.	.	.	.	.	.	8C/	.	.	8c\	.	.	8e\	.	.
.	.	.	.	.	.	.	8C/	-tru(m)	-strum	8c\	-stru(m)	-strum	8e\	-strum	-strum
4E\	6	.	.	.	.	.	8r	.	.	8r	.	.	8r	.	.
.	.	.	.	.	.	.	8E\	lae-	lae-	8G/	lae-	lae-	8cc\	lae-	lae-
=104-	=104-	=104-	=104-	=104-	=104-	=104-	=104-	=104-	=104-	=104-	=104-	=104-	=104-	=104-	=104-
2F\	.	.	1r	.	2r	.	8.F\	-ta-	-ta-	8A/	-ta-	-ta-	8a\	-ta-	-ta-
!	!	!	!	!	!	!	!	!	!	!LO:N:acc=#	!	!	!	!	!
.	.	.	.	.	.	.	.	.	.	8Bn\	-bi-	-bi-	8g\	-bi-	-bi-
.	.	.	.	.	.	.	16F\	-bi-	-bi-	.	.	.	.	.	.
.	.	.	.	.	.	.	8F\	-tur	-tur	8c\	-tur	-tur	8f\	-tur	-tur
.	.	.	.	.	.	.	8G\	cor	cor	8c\	cor	cor	8e\	cor	cor
2G\	4	.	.	.	4r	.	(4G\	nos-	no-	4.c\	nos-	no-	16d\LL	no-	no-
.	.	.	.	.	.	.	.	.	.	.	.	.	16c\	.	.
.	3	.	.	.	.	.	.	.	.	.	.	.	16d\	.	.
.	.	.	.	.	.	.	.	.	.	.	.	.	16e\JJ	.	.
.	.	.	.	.	8r	.	4GG/)	.	.	.	.	.	4d\	.	.
!	!	!	!	!	!LO:TX:t=P:problem:kreska pseudotaktowa	!	!	!	!	!LO:N:acc=#	!	!	!	!	!
.	.	.	.	.	8gg\	.	.	.	.	(8Bn\	-tr(um)	-strum	.	.	.
=105-	=105-	=105-	=105-	=105-	=105-	=105-	=105-	=105-	=105-	=105-	=105-	=105-	=105-	=105-	=105-
4C/	.	.	2r	.	16ee\LL	.	4C/	-trum	-strum	4c\)	.	.	4e\	-strum	-strum
.	.	.	.	.	16ff\	.	.	.	.	.	.	.	.	.	.
.	.	.	.	.	16gg\	.	.	.	.	.	.	.	.	.	.
.	.	.	.	.	16aa\JJ	.	.	.	.	.	.	.	.	.	.
!	!	!	!	!	!LO:TX:a:t=P:problem:# above	!	!	!	!	!	!	!	!	!	!
!	!	!	!	!	!LO:N:acc=#	!	!	!	!	!	!	!	!	!	!
4D/	#6	.	.	.	16b\LL	.	4r	.	.	4r	.	.	4r	.	.
.	.	.	.	.	16cc\	.	.	.	.	.	.	.	.	.	.
.	.	.	.	.	16dd\	.	.	.	.	.	.	.	.	.	.
.	.	.	.	.	16ee\JJ	.	.	.	.	.	.	.	.	.	.
!	!	!	!	!	!LO:LB:g=original	!	!	!	!	!	!	!	!	!	!
4.C/	.	.	4r	.	16cc\LL	.	2r	.	.	2r	.	.	2r	.	.
.	.	.	.	.	16dd\	.	.	.	.	.	.	.	.	.	.
.	.	.	.	.	16cc\	.	.	.	.	.	.	.	.	.	.
.	.	.	.	.	16dd\JJ	.	.	.	.	.	.	.	.	.	.
.	.	.	8r	.	8ee\L	.	.	.	.	.	.	.	.	.	.
!LO:TX:t=P:problem:kreska pseudotaktowa	!	!	!	!	!	!	!	!	!	!	!	!	!	!	!
8C/	.	.	8cc\	.	16ff\L	.	.	.	.	.	.	.	.	.	.
!	!	!	!	!	!LO:TX:t=P:problem:kreska pseudotaktowa	!	!	!	!	!	!	!	!	!	!
.	.	.	.	.	16gg\JJ	.	.	.	.	.	.	.	.	.	.
*	*	*	*custos:a	*	*	*	*	*	*	*	*	*	*	*	*
!	!	!	!LO:LB:g=original	!	!	!	!	!	!	!	!	!	!	!	!
=106-	=106-	=106-	=106-	=106-	=106-	=106-	=106-	=106-	=106-	=106-	=106-	=106-	=106-	=106-	=106-
!	!	!	!	!	!	!	!LO:TX:a:t=3.:mod=	!	!	!LO:TX:b:t=2:mod=	!	!	!LO:TX:b:t=Verte:mod=	!	!
4F\	.	.	16a\LL	.	4aa\	.	0r	.	.	0r	.	.	1r	.	.
.	.	.	16b-\	.	.	.	.	.	.	.	.	.	.	.	.
.	.	.	16cc\	.	.	.	.	.	.	.	.	.	.	.	.
.	.	.	16dd\JJ	.	.	.	.	.	.	.	.	.	.	.	.
4G\	# 6 -	.	16e/LL	.	4bb-\	.	.	.	.	.	.	.	.	.	.
.	.	.	16fny/	.	.	.	.	.	.	.	.	.	.	.	.
.	.	.	16g/	.	.	.	.	.	.	.	.	.	.	.	.
.	.	.	16a/JJ	.	.	.	.	.	.	.	.	.	.	.	.
!	!	!	!LO:TX:t=P:problem:mixed beam	!	!	!	!	!	!	!	!	!	!	!	!
4F\	.	.	8.f/L	.	8.aa\L	.	.	.	.	.	.	.	.	.	.
.	.	.	16ff\Jk	.	16aa\Jk	.	.	.	.	.	.	.	.	.	.
4A\	.	.	16cc\LL	.	16ee\LL	.	.	.	.	.	.	.	.	.	.
.	.	.	16dd\	.	16ff\	.	.	.	.	.	.	.	.	.	.
.	.	.	16cc\	.	16ee\	.	.	.	.	.	.	.	.	.	.
!	!	!	!LO:TX:t=P:problem:kreska pseudotaktowa	!	!LO:TX:t=P:problem:kreska pseudotaktowa	!	!	!	!	!	!	!	!	!	!
.	.	.	16dd\JJ	.	16ff\JJ	.	.	.	.	.	.	.	.	.	.
!	!	!	!	!	!	!	!	!	!	!	!	!	!LO:PB:g=original	!	!
=107-	=107-	=107-	=107-	=107-	=107-	=107-	=107-	=107-	=107-	=107-	=107-	=107-	=107-	=107-	=107-
4E\	6	.	8ee\L	.	8gg\L	.	.	.	.	.	.	.	2r	.	.
.	.	.	16dd\L	.	16ff\L	.	.	.	.	.	.	.	.	.	.
.	.	.	16cc\JJ	.	16ee\JJ	.	.	.	.	.	.	.	.	.	.
!	!	!	!LO:N:acc=#	!	!	!	!	!	!	!	!	!	!	!	!
4G\	.	.	16bn\LL	.	16dd\LL	.	.	.	.	.	.	.	.	.	.
.	.	.	16cc\	.	16ee\	.	.	.	.	.	.	.	.	.	.
.	.	.	16b\	.	16dd\	.	.	.	.	.	.	.	.	.	.
.	.	.	16cc\JJ	.	16ee\JJ	.	.	.	.	.	.	.	.	.	.
!LO:TX:t=P:problem:mixed beam	!	!	!	!	!	!	!	!	!	!	!	!	!	!	!
8D\L	.	.	8dd\L	.	8ff\L	.	.	.	.	.	.	.	4r	.	.
8G\	.	.	8dd\	.	8ee\	.	.	.	.	.	.	.	.	.	.
8A\	.	.	8.dd\	.	8.ee\	.	.	.	.	.	.	.	8r	.	.
*	*	*	*	*	*	*	*	*	*	*	*	*	*all\right	*	*
!	!	!	!	!	!	!	!	!	!	!	!	!	!LO:TX:t=P:problem:kreska pseudotaktowa	!	!
8AA/J	.	.	.	.	.	.	.	.	.	.	.	.	8a\	lae-	lae-
!	!	!	!LO:TX:a:t=P:problem:# above	!	!LO:TX:t=P:problem:kreska pseudotaktowa	!	!	!	!	!	!	!	!	!	!
.	.	.	16cc#X\Jk	.	16dd\Jk	.	.	.	.	.	.	.	.	.	.
*custos:D	*	*	*	*	*	*	*	*	*	*	*	*	*	*	*
!LO:LB:g=original	!	!	!	!	!	!	!	!	!	!	!	!	!	!	!
=108-	=108-	=108-	=108-	=108-	=108-	=108-	=108-	=108-	=108-	=108-	=108-	=108-	=108-	=108-	=108-
!	!	!	!	!	!	!	!LO:TX:a:t=NB \nvide +:mod=	!	!	!	!	!	!	!	!
!	!	!	!	!	!	!	!LO:TX:t=P:problem:wykreślone takty	!	!	!	!	!	!	!	!
4D/	#	.	4dd\	.	4ff#X\	.	1r	.	.	2r	.	.	16f#X\LL	-ta-	-ta-
.	.	.	.	.	.	.	.	.	.	.	.	.	16g\	.	.
.	.	.	.	.	.	.	.	.	.	.	.	.	16a\	.	.
.	.	.	.	.	.	.	.	.	.	.	.	.	16b-\JJ	.	.
4E\	# 6	.	4g/	.	4gg\	.	.	.	.	.	.	.	16c#X\LL	.	.
.	.	.	.	.	.	.	.	.	.	.	.	.	16d\	.	.
.	.	.	.	.	.	.	.	.	.	.	.	.	16e\	.	.
.	.	.	.	.	.	.	.	.	.	.	.	.	16f#\JJ	.	.
2D/	#	.	4.dd\	.	4.ff#\	.	.	.	.	4r	.	.	16d\LL	.	.
.	.	.	.	.	.	.	.	.	.	.	.	.	16e\	.	.
.	.	.	.	.	.	.	.	.	.	.	.	.	16d\	.	.
.	.	.	.	.	.	.	.	.	.	.	.	.	16e\JJ	.	.
.	.	.	.	.	.	.	.	.	.	8r	.	.	16f#X\LL	.	.
.	.	.	.	.	.	.	.	.	.	.	.	.	16a\	.	.
!	!	!	!LO:TX:t=P:problem:kreska pseudotaktowa	!	!LO:TX:t=P:problem:kreska pseudotaktowa	!	!	!	!	!LO:SIC:v:t=custos B	!	!	!	!	!
.	.	.	8dd\	.	8ff#\	.	.	.	.	8d\	lae-	lae-	16g\	.	.
!	!	!	!	!	!	!	!	!	!	!	!	!	!LO:TX:t=P:problem:kreska pseudotaktowa	!	!
.	.	.	.	.	.	.	.	.	.	.	.	.	16f#\JJ	.	.
!	!	!	!	!	!	!	!LO:LB:g=original	!	!	!LO:LB:g=original	!	!	!	!	!
=109-	=109-	=109-	=109-	=109-	=109-	=109-	=109-	=109-	=109-	=109-	=109-	=109-	=109-	=109-	=109-
!	!	!	!	!	!LO:N:acc=#	!	!LO:TX:a:t=NB \nvide +:mod=	!	!	!LO:N:acc=#	!	!	!	!	!
4GG/	#	.	4.dd\	.	8.bbn\	.	2r	.	.	16Bn\LL	-ta-	-ta-	8.g\	.	.
.	.	.	.	.	.	.	.	.	.	16c\	.	.	.	.	.
.	.	.	.	.	.	.	.	.	.	16d\	.	.	.	.	.
.	.	.	.	.	16bb\	.	.	.	.	16e\JJ	.	.	16g\	-bi-	-bi-
4AA/	# 6	.	.	.	8aa\L	.	.	.	.	16F#X/LL	.	.	8.cny/	-tur	-tur
.	.	.	.	.	.	.	.	.	.	16G/	.	.	.	.	.
.	.	.	8ccny\	.	8aa\J	.	.	.	.	16A/	.	.	.	.	.
!	!	!	!	!	!	!	!	!	!	!LO:N:acc=#	!	!	!	!	!
.	.	.	.	.	.	.	.	.	.	16Bn/JJ	.	.	16c/	cor	cor
!	!	!	!LO:N:acc=#	!	!LO:TX:a:t=P:problem:# above	!	!	!	!	!	!	!	!	!	!
!LO:TX:t=P:problem:kreska pseudotaktowa	!	!	!	!	!LO:N:acc=#	!	!	!	!	!	!	!	!	!	!
!	!	!	!	!	!LO:SIC:o=4bbn\	!	!	!	!	!	!	!	!	!	!
2GG/	.	.	4.bn/	.	4bb	.	4r	.	.	16G/LL	.	.	4g\	no-	no-
.	.	.	.	.	.	.	.	.	.	16A/	.	.	.	.	.
.	.	.	.	.	.	.	.	.	.	16G/	.	.	.	.	.
.	.	.	.	.	.	.	.	.	.	16A/JJ	.	.	.	.	.
!	!	!	!	!	!LO:TX:t=P:problem:kreska pseudotaktowa	!	!	!	!	!LO:N:acc=#	!	!	!LO:TX:t=P:problem:kreska pseudotaktowa	!	!
.	.	.	.	.	4gg\	.	8r	.	.	8Bn\L	.	.	4g\	-stru(m)	-strum
!	!	!	!	!	!	!	!LO:TX:t=P:problem:kreska pseudotaktowa	!	!	!	!	!	!	!	!
.	.	.	8b/	.	.	.	8G\	lae-	lae-	16c\L	.	.	.	.	.
.	.	.	.	.	.	.	.	.	.	16d\JJ	.	.	.	.	.
=110-	=110-	=110-	=110-	=110-	=110-	=110-	=110-	=110-	=110-	=110-	=110-	=110-	=110-	=110-	=110-
4C/	.	.	8cc\L	.	4gg\	.	16E\LL	-ta-	-ta-	8.e\	.	.	4r	.	.
.	.	.	.	.	.	.	16F\	.	.	.	.	.	.	.	.
.	.	.	8cc\J	.	.	.	16G\	.	.	.	.	.	.	.	.
.	.	.	.	.	.	.	16A\JJ	.	.	16e\	-bi-	-bi-	.	.	.
!LO:N:acc=#	!	!	!	!	!	!	!LO:N:acc=#	!	!	!	!	!	!	!	!
4BBn/	6	.	4dd\	.	8r	.	16BBn/LL	.	.	4d\	-tur	-tur	8r	.	.
.	.	.	.	.	.	.	16C/	.	.	.	.	.	.	.	.
.	.	.	.	.	8gg\	.	16D/	.	.	.	.	.	8d\	lae-	lae-
.	.	.	.	.	.	.	16E/JJ	.	.	.	.	.	.	.	.
4C/	.	.	4g/	.	16ee\LL	.	8.C/	.	.	2r	.	.	8.e\	-ta-	-ta-
.	.	.	.	.	16ffny\	.	.	.	.	.	.	.	.	.	.
.	.	.	.	.	16gg\	.	.	.	.	.	.	.	.	.	.
.	.	.	.	.	16aa\JJ	.	16C/	-bi-	-bi-	.	.	.	16e\	-bi-	-bi-
!LO:TX:t=P:problem:kreska pseudotaktowa	!	!	!	!	!LO:N:acc=#	!	!	!	!	!	!	!	!	!	!
4D/	# 6	.	4r	.	16bn\LL	.	8D/	-tur	-tur	.	.	.	8fny\	-tur	-tur
.	.	.	.	.	16cc\	.	.	.	.	.	.	.	.	.	.
*	*	*	*	*	*	*	*	*	*	*	*	*	*	*ij	*ij
!	!	!	!	!	!	!	!LO:TX:t=P:problem:kreska pseudotaktowa	!	!	!	!	!	!LO:TX:t=P:problem:kreska pseudotaktowa	!	!
.	.	.	.	.	16dd\	.	8D/	cor	cor	.	.	.	8f\	lae-	lae-
!	!	!	!	!	!LO:TX:t=P:problem:kreska pseudotaktowa	!	!	!	!	!	!	!	!	!	!
.	.	.	.	.	16ee\JJ	.	.	.	.	.	.	.	.	.	.
=111-	=111-	=111-	=111-	=111-	=111-	=111-	=111-	=111-	=111-	=111-	=111-	=111-	=111-	=111-	=111-
2C/	.	.	4r	.	16cc\LL	.	8C/	no-	no-	4r	.	.	8.e\	-ta-	-ta-
.	.	.	.	.	16dd\	.	.	.	.	.	.	.	.	.	.
.	.	.	.	.	16cc\	.	8C/	-stru(m)	-strum	.	.	.	.	.	.
.	.	.	.	.	16dd\JJ	.	.	.	.	.	.	.	16e\	-bi-	-bi-
.	.	.	8r	.	8.ee\L	.	8r	.	.	8r	.	.	8e\	-tur	-tur
.	.	.	8cc\	.	.	.	8C/	lae-	lae-	8c\	lae-	lae-	8g\	lae-	lae-
.	.	.	.	.	16ee\Jk	.	.	.	.	.	.	.	.	.	.
!	!	!	!	!	!LO:TX:t=P:problem:mixed beam	!	!	!	!	!	!	!	!LO:LB:g=original	!	!
4F\	.	.	16a/LL	.	16ff\LL	.	8.F\	-ta-	-ta-	8.c\	-ta-	-ta-	8.a\	-ta-	-ta-
.	.	.	16b-y/	.	16gg\J	.	.	.	.	.	.	.	.	.	.
.	.	.	16cc/	.	8aa\	.	.	.	.	.	.	.	.	.	.
.	.	.	16dd/JJ	.	.	.	16F\	-bi-	-bi-	16c\	-bi-	-bi-	16a\	-bi-	-bi-
!LO:TX:t=P:problem:kreska pseudotaktowa	!	!	!	!	!	!	!	!	!	!	!	!	!	!	!
4G\	# 6 -	.	16e/LL	.	8bb-y\	.	8G\	-tur	-tur	8B-y\	-tur	-tur	8.g\	-tur	-tur
.	.	.	16f/	.	.	.	.	.	.	.	.	.	.	.	.
*	*	*	*	*	*	*	*	*ij	*ij	*	*ij	*ij	*	*	*
!	!	!	!	!	!LO:SIC:v:t=custos ff	!	!LO:TX:t=P:problem:kreska pseudotaktowa	!	!	!	!	!	!	!	!
.	.	.	16g/	.	8b-y/J	.	8G\	lae-	lae-	8B-\	lae-	lae-	.	.	.
!	!	!	!LO:TX:t=P:problem:kreska pseudotaktowa	!	!	!	!	!	!	!	!	!	!LO:TX:t=P:problem:kreska pseudotaktowa	!	!
.	.	.	16a/JJ	.	.	.	.	.	.	.	.	.	16g\	lae-	lae-
!	!	!	!	!	!LO:LB:g=original	!	!	!	!	!	!	!	!	!	!
=112-	=112-	=112-	=112-	=112-	=112-	=112-	=112-	=112-	=112-	=112-	=112-	=112-	=112-	=112-	=112-
2F\	.	.	4.f/	.	4ff\	.	8.F\	-ta-	-ta-	8.A/	-ta-	-ta-	8.a\	-ta-	-ta-
.	.	.	.	.	.	.	16F\	-bi-	-bi-	16B-\	-bi-	-bi-	16a\	-bi-	-bi-
.	.	.	.	.	2aa\	.	4F\	-tur	-tur	8c\	-tur	-tur	8a\	-tur	-tur
*	*	*	*	*	*	*	*	*Xij	*Xij	*	*Xij	*Xij	*	*Xij	*Xij
.	.	.	8cc\	.	.	.	.	.	.	8f\	cor	cor	8a\	cor	cor
4A\	.	.	4.cc\	.	.	.	8r	.	.	16c\LL	no-	no-	16e\LL	no-	no-
.	.	.	.	.	.	.	.	.	.	16d\	.	.	16f\	.	.
.	.	.	.	.	.	.	8A\	cor	cor	16c\	.	.	16e\	.	.
.	.	.	.	.	.	.	.	.	.	16d\JJ	.	.	16f\JJ	.	.
!LO:TX:t=P:problem:kreska pseudotaktowa	!	!	!	!	!LO:TX:t=P:problem:kreska pseudotaktowa dopisana ołówkiem	!	!	!	!	!	!	!	!	!	!
4E\	6	.	.	.	[4gg\	.	16E\LL	no-	no-	8e\L	.	.	8g\L	.	.
.	.	.	.	.	.	.	16F\	.	.	.	.	.	.	.	.
.	.	.	8cc\	.	.	.	16E\	.	.	16d\L	.	.	16f\L	.	.
.	.	.	.	.	.	.	16F\JJ	.	.	16c\JJ	.	.	16e\JJ	.	.
*	*	*	*	*	*	*	*	*	*	*custos:B	*	*	*	*	*
!	!	!	!	!	!	!	!	!	!	!LO:LB:g=original	!	!	!	!	!
=113-	=113-	=113-	=113-	=113-	=113-	=113-	=113-	=113-	=113-	=113-	=113-	=113-	=113-	=113-	=113-
!	!	!	!	!	!	!	!	!	!	!LO:N:acc=#	!	!	!	!	!
4G\	#	.	4g/	.	4gg\]	.	8G\L	.	.	16Bn\LL	.	.	16d\LL	.	.
.	.	.	.	.	.	.	.	.	.	16c\	.	.	16e\	.	.
.	.	.	.	.	.	.	16F\L	.	.	16B\	.	.	16d\	.	.
.	.	.	.	.	.	.	16E\JJ	.	.	16c\JJ	.	.	16e\JJ	.	.
!LO:TX:t=P:problem:kreska pseudotaktowa	!	!	!	!	!	!	!	!	!	!	!	!	!	!	!
4D/	.	.	8r	.	[4ff\	.	16D\LL	.	.	8d\L	.	.	8f\L	.	.
.	.	.	.	.	.	.	16E\	.	.	.	.	.	.	.	.
.	.	.	8a/	.	.	.	16D\	.	.	16c\L	.	.	16e\L	.	.
.	.	.	.	.	.	.	16E\JJ	.	.	16B\JJ	.	.	16d\JJ	.	.
4F\	.	.	4.a/	.	4ff\]	.	8F\L	.	.	16A\LL	.	.	16c\LL	.	.
.	.	.	.	.	.	.	.	.	.	16B\	.	.	16d\	.	.
.	.	.	.	.	.	.	16E\L	.	.	16A\	.	.	16c\	.	.
.	.	.	.	.	.	.	16D\JJ	.	.	16B\JJ	.	.	16d\JJ	.	.
!LO:TX:t=P:problem:kreska pseudotaktowa	!	!	!	!	!LO:TX:t=P:problem:kreska pseudotaktowa dopisana ołówkiem	!	!LO:SIC:v:t=custos C	!	!	!	!	!	!	!	!
4C/	.	.	.	.	[4ee\	.	4C/	.	.	16c\LL	.	.	16e\LL	.	.
.	.	.	.	.	.	.	.	.	.	16d\	.	.	16f\	.	.
.	.	.	8dd\	.	.	.	.	.	.	16c\	.	.	16e\	.	.
!	!	!	!	!	!	!	!	!	!	!	!	!	!LO:TX:t=P:problem:kreska pseudotaktowa	!	!
.	.	.	.	.	.	.	.	.	.	16d\JJ	.	.	16f\JJ	.	.
!	!	!	!LO:LB:g=original	!	!	!	!LO:LB:g=original	!	!	!	!	!	!	!	!
=114-	=114-	=114-	=114-	=114-	=114-	=114-	=114-	=114-	=114-	=114-	=114-	=114-	=114-	=114-	=114-
2C/	.	.	4.g/	.	4ee\]	.	4C/	-stru(m)	-strum	8e\	.	.	8g\	.	.
.	.	.	.	.	.	.	.	.	.	8e\	-strum	-strum	8g\	-stru(m)	-strum
.	.	.	.	.	4gg\	.	8r	.	.	8r	.	.	8r	.	.
.	.	.	8cc\	.	.	.	8C/	lae-	lae-	8e\	lae-	lae-	8g\	lae-	lae-
4F\	.	.	4.a/	.	4.ff\	.	8F\	-ta-	-ta-	8f\	-ta-	-ta-	8a\	-ta-	-ta-
.	.	.	.	.	.	.	8G\	-bi-	-bi-	8e\	-bi-	-bi-	8g\	-bi-	-bi-
!LO:TX:t=P:problem:kreska pseudotaktowa	!	!	!	!	!	!	!	!	!	!	!	!	!	!	!
4A\	.	.	.	.	.	.	8A\	-tur	-tur	8d\	-tur	-tur	8f\	-tur	-tur
!	!	!	!	!	!LO:TX:t=P:problem:kreska pseudotaktowa dopisana ołówkiem	!	!LO:TX:t=P:problem:kreska pseudotaktowa	!	!	!	!	!	!LO:TX:t=P:problem:kreska pseudotaktowa	!	!
.	.	.	8a/	.	8cc\	.	8A\	cor	cor	8c\	cor	cor	8e\	cor	cor
=115-	=115-	=115-	=115-	=115-	=115-	=115-	=115-	=115-	=115-	=115-	=115-	=115-	=115-	=115-	=115-
4F\	6	.	4a/	.	4.dd\	.	(4F\	no-	no-	4.c\	no-	no-	16d\LL	no-	no-
.	.	.	.	.	.	.	.	.	.	.	.	.	16c\	.	.
.	.	.	.	.	.	.	.	.	.	.	.	.	16d\	.	.
.	.	.	.	.	.	.	.	.	.	.	.	.	16e\JJ	.	.
4G\	4	.	4g/	.	.	.	4G\)	.	.	.	.	.	4d\	.	.
!	!	!	!	!	!	!	!	!	!	!LO:N:acc=#	!	!	!	!	!
.	3	.	.	.	8dd\	.	.	.	.	(8Bn\	-stru(m)	-strum	.	.	.
!LO:TX:t=P:problem:kreska pseudotaktowa	!	!	!	!	!	!	!	!	!	!	!	!	!	!	!
2C/	.	.	4g/	.	4cc\	.	8C/	-stru(m)	-strum	4c\)	.	.	4e\	-strum	-strum
.	.	.	.	.	.	.	8c\	lae-	lae-	.	.	.	.	.	.
!	!	!	!LO:TX:t=P:problem:kreska pseudotaktowa	!	!LO:TX:t=P:problem:kreska pseudotaktowa dopisana ołówkiem	!	!	!	!	!	!	!	!	!	!
.	.	.	4r	.	4r	.	16G\LL	-ta-	-ta-	4r	.	.	4r	.	.
.	.	.	.	.	.	.	16A\	.	.	.	.	.	.	.	.
.	.	.	.	.	.	.	16G\	.	.	.	.	.	.	.	.
!	!	!	!	!	!	!	!LO:TX:t=P:problem:kreska pseudotaktowa	!	!	!	!	!	!	!	!
.	.	.	.	.	.	.	16A\JJ	.	.	.	.	.	.	.	.
!	!	!	!	!	!	!	!	!	!	!	!	!	!LO:LB:g=original	!	!
=116-	=116-	=116-	=116-	=116-	=116-	=116-	=116-	=116-	=116-	=116-	=116-	=116-	=116-	=116-	=116-
!	!	!	!	!	!	!	!	!	!	!LO:TX:a:t=3.:mod=	!	!	!	!	!
4G\	.	.	8r	.	8r	.	8.B-\	.	.	0r	.	.	0r	.	.
.	.	.	8gg\	.	8bb-\	.	.	.	.	.	.	.	.	.	.
.	.	.	.	.	.	.	16B-\	-bi-	-bi-	.	.	.	.	.	.
4B-\	.	.	16dd\LL	.	16ff\LL	.	8B-\	-tur	-tur	.	.	.	.	.	.
.	.	.	16ee\	.	16gg\	.	.	.	.	.	.	.	.	.	.
.	.	.	16dd\	.	16ff\	.	8B-\	lae-	lae-	.	.	.	.	.	.
.	.	.	16ee\JJ	.	16gg\JJ	.	.	.	.	.	.	.	.	.	.
4F\	.	.	8ff\L	.	8aa\L	.	16F\LL	-ta-	-ta-	.	.	.	.	.	.
.	.	.	.	.	.	.	16G\	.	.	.	.	.	.	.	.
.	.	.	16ee\L	.	16gg\L	.	16F\	.	.	.	.	.	.	.	.
.	.	.	16dd\JJ	.	16ff\JJ	.	16G\JJ	.	.	.	.	.	.	.	.
!LO:TX:t=P:problem:kreska pseudotaktowa	!	!	!	!	!	!	!	!	!	!	!	!	!	!	!
4A\	.	.	16cc\LL	.	16ee\LL	.	8A\L	.	.	.	.	.	.	.	.
.	.	.	16dd\	.	16ff\	.	.	.	.	.	.	.	.	.	.
.	.	.	16cc\	.	16ee\	.	16G\L	.	.	.	.	.	.	.	.
!	!	!	!LO:TX:t=P:problem:kreska pseudotaktowa	!	!LO:TX:t=P:problem:kreska pseudotaktowa	!	!LO:TX:t=P:problem:kreska pseudotaktowa	!	!	!	!	!	!	!	!
.	.	.	16dd\JJ	.	16ff\JJ	.	16F\JJ	.	.	.	.	.	.	.	.
=117-	=117-	=117-	=117-	=117-	=117-	=117-	=117-	=117-	=117-	=117-	=117-	=117-	=117-	=117-	=117-
4E\	.	.	8ee\L	.	8gg\L	.	16E\LL	.	.	.	.	.	.	.	.
.	.	.	.	.	.	.	16F\	.	.	.	.	.	.	.	.
.	.	.	16dd\L	.	16ff\L	.	16E\	.	.	.	.	.	.	.	.
.	.	.	16cc\JJ	.	16ee\JJ	.	16F\JJ	.	.	.	.	.	.	.	.
!	!	!	!LO:N:acc=#	!	!	!	!	!	!	!	!	!	!	!	!
4G\	#	.	16bn\LL	.	16dd\LL	.	8G\L	.	.	.	.	.	.	.	.
.	.	.	16cc\	.	16ee\	.	.	.	.	.	.	.	.	.	.
.	.	.	16b\	.	16dd\	.	16F\L	.	.	.	.	.	.	.	.
.	.	.	16cc\JJ	.	16ee\JJ	.	16E\JJ	.	.	.	.	.	.	.	.
4.D/	.	.	8.dd\L	.	8.ff\L	.	8.D/	.	.	.	.	.	.	.	.
.	.	.	16dd\K	.	16ff\K	.	16D/	-bi-	-bi-	.	.	.	.	.	.
.	.	.	8dd\	.	8ff\	.	8D/	-tur	-tur	.	.	.	.	.	.
!LO:TX:t=P:problem:kreska pseudotaktowa	!	!	!LO:TX:t=P:problem:kreska pseudotaktowa	!	!LO:TX:t=P:problem:kreska pseudotaktowa	!	!LO:TX:t=P:problem:kreska pseudotaktowa	!	!	!	!	!	!	!	!
8AA/	6	.	8cc\J	.	8ff\J	.	8AA/	lae-	lae-	.	.	.	.	.	.
=118-	=118-	=118-	=118-	=118-	=118-	=118-	=118-	=118-	=118-	=118-	=118-	=118-	=118-	=118-	=118-
4BB-y/	.	.	8b-y/L	.	8dd\L	.	8BB-y/	-ta-	-ta-	1r	.	.	1r	.	.
.	.	.	8a/	.	8cc\	.	8C/	-bi-	-bi-	.	.	.	.	.	.
4D/	.	.	8g/	.	8b-\	.	8.D/	-tur	-tur	.	.	.	.	.	.
.	.	.	8f/J	.	8a\J	.	.	.	.	.	.	.	.	.	.
.	.	.	.	.	.	.	16D/	cor	cor	.	.	.	.	.	.
!	!	!	!	!	!	!	!LO:LB:g=original	!	!	!	!	!	!	!	!
4BB-/	.	.	4.f/	.	4.g/	.	(4BB-/	no-	no-	.	.	.	.	.	.
!LO:TX:t=P:problem:kreska pseudotaktowa	!	!	!	!	!	!	!LO:TX:t=P:problem:kreska pseudotaktowa	!	!	!	!	!	!	!	!
4C/	.	.	.	.	.	.	4C/)	.	.	.	.	.	.	.	.
!	!	!	!	!	!LO:TX:t=P:problem:kreska pseudotaktowa dopisana ołówkiem	!	!	!	!	!	!	!	!	!	!
.	.	.	8e/	.	8g/	.	.	.	.	.	.	.	.	.	.
=119-	=119-	=119-	=119-	=119-	=119-	=119-	=119-	=119-	=119-	=119-	=119-	=119-	=119-	=119-	=119-
!LO:TX:b:t=tutti:mod=	!	!	!	!	!LO:TX:t=P:problem:mixed beam	!	!	!	!	!	!	!	!	!	!
4F\	.	.	8f/L	.	8a/L	.	8FF/	-stru(m),	-strum	8r	.	.	8r	.	.
.	.	.	8cc/J	.	8ff\J	.	8F\	lae-	lae-	8c\	lae-	lae-	8a\	lae-	lae-
4E\	6	.	8.cc\L	.	8.gg\L	.	8.E\	-ta-	-ta-	8.c\	-ta-	-ta-	8.g\	-ta-	-ta-
!	!	!	!	!	!	!	!LO:TX:t=P:problem:kreska pseudotaktowa	!	!	!	!	!	!	!	!
.	.	.	16cc\Jk	.	16gg\Jk	.	16E\	-bi-	-bi-	16c\	-bi-	-bi-	16g\	-bi-	-bi-
*	*	*	*	*	*	*	*	*	*	*custos:c	*	*	*	*	*
!	!	!	!	!	!	!	!	!	!	!LO:LB:g=original	!	!	!	!	!
4F\	.	.	8cc\L	.	8ff\L	.	8F\	-tur	-tur	8c\	-tur	-tur	8a\	-tur	-tur
*	*	*	*	*	*	*	*	*ij	*ij	*	*ij	*ij	*	*ij	*ij
.	.	.	8cc\J	.	8ff\J	.	8FF/	lae-	lae-	8A/	lae-	lae-	8f\	lae-	lae-
4C/	.	.	8.cc\L	.	8.gg\L	.	8.C/	-ta-	-ta-	8.G/	-ta-	-ta-	8.f\	-ta-	-ta-
!	!	!	!	!	!LO:TX:t=P:problem:kreska pseudotaktowa dopisana ołówkiem	!	!LO:TX:t=P:problem:kreska pseudotaktowa	!	!	!	!	!	!LO:TX:t=P:problem:kreska pseudotaktowa	!	!
.	.	.	16cc\Jk	.	16gg\Jk	.	16C/	-bi-	-bi-	16G/	-bi-	-bi-	16e\	-bi-	-bi-
=120-	=120-	=120-	=120-	=120-	=120-	=120-	=120-	=120-	=120-	=120-	=120-	=120-	=120-	=120-	=120-
2FF/	.	.	4.cc\	.	4.ff\	.	4.FF/	-tur	-tur	4.A/	-tur	-tur	4.f\	-tur	-tur
!	!	!	!	!	!	!	!LO:TX:t=P:problem:kreska pseudotaktowa	!	!	!	!	!	!	!	!
.	.	.	8cc\	.	8ff\	.	8FF/	lae-	lae-	8A/	lae-	lae-	8a\	lae-	lae-
!	!	!	!	!	!LO:TX:t=P:problem:kreska pseudotaktowa	!	!	!	!	!	!	!	!	!	!
2GG/	.	.	2b-/	.	2dd\	.	8.GG/	-ta-	-ta-	8.B-\	-ta-	-ta-	8.g\	-ta-	-ta-
.	.	.	.	.	.	.	16GG/	-bi-	-bi-	16c\	-bi-	-bi-	16g\	-bi-	-bi-
.	.	.	.	.	.	.	8GG/	-tur	-tur	8.d\	-tur	-tur	8g\	-tur	-tur
*	*	*	*	*	*	*	*	*Xij	*Xij	*	*Xij	*Xij	*	*Xij	*Xij
!	!	!	!	!	!	!	!LO:TX:t=P:problem:kreska pseudotaktowa	!	!	!	!	!	!	!	!
.	.	.	.	.	.	.	8GG/	cor	cor	.	.	.	8f\	cor	cor
.	.	.	.	.	.	.	.	.	.	16d\	cor	cor	.	.	.
=121-	=121-	=121-	=121-	=121-	=121-	=121-	=121-	=121-	=121-	=121-	=121-	=121-	=121-	=121-	=121-
!	!	!	!	!	!	!	!LO:TX:t=P:problem:kreska pseudotaktowa	!	!	!	!	!	!	!	!
2AA/	4	.	2a/	.	4r	.	2AA/	no-	no-	4.d\	no-	no-	2e\	no-	no-
.	.	.	.	.	4aa\	.	.	.	.	.	.	.	.	.	.
.	3	.	.	.	.	.	.	.	.	(8c#X\	-strum	-strum	.	.	.
2D/	#	.	4.a/	.	4.ff#X\	.	4.D/	-stru(m)	-strum	4.d\)	.	.	4.f#X\	-stru(m)	-strum
!	!	!	!	!	!LO:TX:t=P:problem:kreska pseudotaktowa dopisana ołówkiem	!	!LO:TX:t=P:problem:kreska pseudotaktowa	!	!	!	!	!	!	!	!
.	.	.	8a/	.	8dd\	.	8D/	lae-	lae-	8d\	lae-	lae-	8f#\	lae-	lae-
=122-	=122-	=122-	=122-	=122-	=122-	=122-	=122-	=122-	=122-	=122-	=122-	=122-	=122-	=122-	=122-
2G\	.	.	2b-/	.	1dd	.	4.G\	-ta-	-ta-	4.B-\	-ta	-ta	4.g\	-ta-	-ta-
.	.	.	.	.	.	.	8G\	-bi-	-bi-	8B-\	-bi-	-bi-	8g\	-bi-	-bi-
2F#X\	6	.	2dd\	.	.	.	4.F#X\	-tur	-tur	4.A/	-tur	-tur	4a\	-tur	-tur
.	.	.	.	.	.	.	.	.	.	.	.	.	4a\	cor	cor
.	.	.	.	.	.	.	8F#\	cor	cor	8A/	cor	cor	.	.	.
=123-	=123-	=123-	=123-	=123-	=123-	=123-	=123-	=123-	=123-	=123-	=123-	=123-	=123-	=123-	=123-
!	!	!	!	!	!LO:SIC:o=[1dd;l	!	!	!	!	!	!	!	!	!	!
1G	.	.	1b-	.	[1dd	.	1G	no-	no-	1B-	no-	no-	1g	no-	no-
=124-	=124-	=124-	=124-	=124-	=124-	=124-	=124-	=124-	=124-	=124-	=124-	=124-	=124-	=124-	=124-
!	!	!	!	!	!	!	!LO:TX:a:t=verte:mod=	!	!	!	!	!	!	!	!
!	!	!	!	!	!LO:SIC:o=1dd]	!	!LO:TX:t=P:problem:pojedyncza kreska taktowa	!	!	!LO:SIC:o=1A;;l	!	!	!LO:SIC:o=1f#Xl	!	!
1D;l	.	.	1dd;l	.	1dd]l;	.	1D;l	-strum	-strum	1A;l	-strum	-strum	1f#l;	-strum	-strum
!LO:LB:g=original	!	!	!LO:LB:g=original	!	!LO:LB:g=original	!	!LO:PB:g=original	!	!	!LO:LB:g=original	!	!	!LO:LB:g=original	!	!
=125||-	=125||-	=125||-	=125||-	=125||-	=125||-	=125||-	=125||-	=125||-	=125||-	=125||-	=125||-	=125||-	=125||-	=125||-	=125||-
*M3/2	*	*	*M3/2	*	*M3/2	*	*M3/2	*	*	*M3/2	*	*	*M3/2	*	*
*	*	*	*	*	*	*	*	*	*	*	*	*	*2\right	*	*
!LO:TX:b:t=Exurge Domine:mod=	!	!	!	!	!	!	!	!	!	!	!	!	!	!	!
!LO:TX:a:t=alto solo.:mod=	!	!	!	!	!	!	!	!	!	!LO:TX:a:t=5.:mod=	!	!	!	!	!
2D/	#	.	00.r	.	00.r	.	00.r	.	.	00.r	.	.	2a\	E-	E-
2GG/	.	.	.	.	.	.	.	.	.	.	.	.	2b-\	-xur-	-xur-
2C/	.	.	.	.	.	.	.	.	.	.	.	.	2g\	-ge	-ge
=126-	=126-	=126-	=126-	=126-	=126-	=126-	=126-	=126-	=126-	=126-	=126-	=126-	=126-	=126-	=126-
1.FF	.	.	.	.	.	.	.	.	.	.	.	.	2.a\	Do-	Do-
.	.	.	.	.	.	.	.	.	.	.	.	.	4a\	-mi-	-mi-
.	.	.	.	.	.	.	.	.	.	.	.	.	2a\	-ne	-ne
=127-	=127-	=127-	=127-	=127-	=127-	=127-	=127-	=127-	=127-	=127-	=127-	=127-	=127-	=127-	=127-
*	*	*	*	*	*	*	*	*	*	*	*	*	*	*ij	*ij
2GG/	.	.	.	.	.	.	.	.	.	.	.	.	2g\	E-	e-
2AA/	.	.	.	.	.	.	.	.	.	.	.	.	2.fny\	-xur-	-xur-
!LO:N:acc=#	!	!	!	!	!	!	!	!	!	!	!	!	!	!	!
2BBn/	.	.	.	.	.	.	.	.	.	.	.	.	.	.	.
.	.	.	.	.	.	.	.	.	.	.	.	.	4f\	-ge	-ge
=128-	=128-	=128-	=128-	=128-	=128-	=128-	=128-	=128-	=128-	=128-	=128-	=128-	=128-	=128-	=128-
2.C/	.	.	.	.	.	.	.	.	.	.	.	.	2.e\	Do-	Do-
4D/	.	.	.	.	.	.	.	.	.	.	.	.	4f\	-mi-	-mi-
2E\	.	.	.	.	.	.	.	.	.	.	.	.	2g\	-ne	-ne
*	*	*	*	*	*	*	*	*	*	*	*	*	*	*Xij	*Xij
=129-	=129-	=129-	=129-	=129-	=129-	=129-	=129-	=129-	=129-	=129-	=129-	=129-	=129-	=129-	=129-
!	!	!	!LO:TX:t=P:problem:kreska pseudotaktowa	!	!LO:TX:t=P:problem:kreska pseudotaktowa	!	!	!	!	!	!	!	!	!	!
2Fny\	.	.	1.r	.	1.r	.	1.r	.	.	1.r	.	.	2a\	e-	e-
1G	4	.	.	.	.	.	.	.	.	.	.	.	1d	-xur-	-xur-
.	3	.	.	.	.	.	.	.	.	.	.	.	.	.	.
=130-	=130-	=130-	=130-	=130-	=130-	=130-	=130-	=130-	=130-	=130-	=130-	=130-	=130-	=130-	=130-
!!!OMD:
!!!OMD-mod: Adagio
*M2/2	*	*	*M2/2	*	*M2/2	*	*M2/2	*	*	*M2/2	*	*	*M2/2	*	*
*met(c)	*	*	*met(c)	*	*met(c)	*	*met(c)	*	*	*met(c)	*	*	*met(c)	*	*
*mmet(c)	*	*	*mmet(c)	*	*mmet(c)	*	*mmet(c)	*	*	*mmet(c)	*	*	*mmet(c)	*	*
!LO:TX:b:t=adagio:mod=	!	!	!	!	!	!	!	!	!	!LO:TX:a:t=3:mod=	!	!	!	!	!
1C	.	.	0r	.	0r	.	0r	.	.	0r	.	.	2c/	-ge	-ge
.	.	.	.	.	.	.	.	.	.	.	.	.	8r	.	.
!	!	!	!	!	!	!	!	!	!	!	!	!	!LO:TX:a:t=adagio:mod=	!	!
.	.	.	.	.	.	.	.	.	.	.	.	.	8e\	in	in
.	.	.	.	.	.	.	.	.	.	.	.	.	8e\	ad-	ad-
!	!	!	!	!	!	!	!	!	!	!	!	!	!LO:TX:t=P:problem:kreska pseudotaktowa	!	!
.	.	.	.	.	.	.	.	.	.	.	.	.	8f\	-iu-	-iu-
=131-	=131-	=131-	=131-	=131-	=131-	=131-	=131-	=131-	=131-	=131-	=131-	=131-	=131-	=131-	=131-
1AA	6	.	.	.	.	.	.	.	.	.	.	.	8.f\	-to-	-to-
.	.	.	.	.	.	.	.	.	.	.	.	.	16f\	-ri-	-ri-
.	.	.	.	.	.	.	.	.	.	.	.	.	4f\	-um	-um
.	.	.	.	.	.	.	.	.	.	.	.	.	8r	.	.
.	.	.	.	.	.	.	.	.	.	.	.	.	8a\	in	in
.	.	.	.	.	.	.	.	.	.	.	.	.	8.a\	ad-	ad-
.	.	.	.	.	.	.	.	.	.	.	.	.	16a\	-iu-	-iu-
*	*	*	*	*	*	*	*	*	*	*	*	*	*custos:b	*	*
!	!	!	!	!	!	!	!	!	!	!	!	!	!LO:LB:g=original	!	!
=132-	=132-	=132-	=132-	=132-	=132-	=132-	=132-	=132-	=132-	=132-	=132-	=132-	=132-	=132-	=132-
!	!	!	!LO:TX:t=P:problem:kreska pseudotaktowa	!	!LO:TX:t=P:problem:kreska pseudotaktowa	!	!LO:TX:t=P:problem:kreska pseudotaktowa	!	!	!	!	!	!	!	!
2GG/	.	.	1r	.	1r	.	1r	.	.	1r	.	.	4b-X\	-to-	-to-
.	.	.	.	.	.	.	.	.	.	.	.	.	8g\	-ri-	-ri-
.	.	.	.	.	.	.	.	.	.	.	.	.	8f\	-um	-um
2AA/	4	.	.	.	.	.	.	.	.	.	.	.	2e\	no-	no-
.	3	.	.	.	.	.	.	.	.	.	.	.	.	.	.
=133-	=133-	=133-	=133-	=133-	=133-	=133-	=133-	=133-	=133-	=133-	=133-	=133-	=133-	=133-	=133-
*M3/2	*	*	*M3/2	*	*M3/2	*	*M3/2	*	*	*M3/2	*	*	*M3/2	*	*
!LO:TX:a:t=Ten&colon; solo:mod=	!	!	!	!	!	!	!	!	!	!	!	!	!	!	!
2D/	.	.	0.r	.	0.r	.	0.r	.	.	2f\	Ex-	E-	2d\	-strum	-strum
2E-X\	.	.	.	.	.	.	.	.	.	2e-X\	-ur-	-xur-	2r	.	.
2F\	.	.	.	.	.	.	.	.	.	2cny\	-ge	-ge	2r	.	.
=134-	=134-	=134-	=134-	=134-	=134-	=134-	=134-	=134-	=134-	=134-	=134-	=134-	=134-	=134-	=134-
1.BB-y	.	.	.	.	.	.	.	.	.	2.d\	Do-	Do-	0.r	.	.
.	.	.	.	.	.	.	.	.	.	4d\	-mi-	-mi-	.	.	.
.	.	.	.	.	.	.	.	.	.	2d\	-ne	-ne	.	.	.
=135-	=135-	=135-	=135-	=135-	=135-	=135-	=135-	=135-	=135-	=135-	=135-	=135-	=135-	=135-	=135-
!	!	!	!LO:TX:t=P:problem:kreska pseudotaktowa	!	!	!	!	!	!	!	!	!	!	!	!
2C/	.	.	1.r	.	1.r	.	1.r	.	.	2c\	e-	e-	.	.	.
2D/	.	.	.	.	.	.	.	.	.	(2.B-\	-xur-	-xur-	.	.	.
2Eny\	6	.	.	.	.	.	.	.	.	.	.	.	.	.	.
.	.	.	.	.	.	.	.	.	.	4A/)	.	.	.	.	.
=136-	=136-	=136-	=136-	=136-	=136-	=136-	=136-	=136-	=136-	=136-	=136-	=136-	=136-	=136-	=136-
*M2/2	*	*	*M2/2	*	*M2/2	*	*M2/2	*	*	*M2/2	*	*	*M2/2	*	*
*met(c)	*	*	*met(c)	*	*met(c)	*	*met(c)	*	*	*met(c)	*	*	*met(c)	*	*
*mmet(c)	*	*	*mmet(c)	*	*mmet(c)	*	*mmet(c)	*	*	*mmet(c)	*	*	*mmet(c)	*	*
!LO:TX:b:t=adagio:mod=	!	!	!	!	!	!	!LO:TX:t=P:problem:kreska pseudotaktowa	!	!	!	!	!	!	!	!
1F	.	.	0r	.	0r	.	0r	.	.	2A/	-ge	-ge	0r	.	.
.	.	.	.	.	.	.	.	.	.	8r	.	.	.	.	.
.	.	.	.	.	.	.	.	.	.	8c\	in	in	.	.	.
.	.	.	.	.	.	.	.	.	.	8c\	ad-	ad-	.	.	.
.	.	.	.	.	.	.	.	.	.	8c\	-iu-	-iu-	.	.	.
=137-	=137-	=137-	=137-	=137-	=137-	=137-	=137-	=137-	=137-	=137-	=137-	=137-	=137-	=137-	=137-
2BB-/	.	.	.	.	.	.	.	.	.	4d\	-to-	-to-	.	.	.
.	.	.	.	.	.	.	.	.	.	8B-\	-ri-	-ri-	.	.	.
.	.	.	.	.	.	.	.	.	.	8A/	-um	-um	.	.	.
!	!	!	!	!	!	!	!	!	!	!LO:SIC:v:t=custos F	!	!	!	!	!
2C/	4	.	.	.	.	.	.	.	.	2G/	no-	no-	.	.	.
.	3	.	.	.	.	.	.	.	.	.	.	.	.	.	.
!	!	!	!	!	!	!	!	!	!	!LO:LB:g=original	!	!	!	!	!
=138-	=138-	=138-	=138-	=138-	=138-	=138-	=138-	=138-	=138-	=138-	=138-	=138-	=138-	=138-	=138-
*M3/2	*	*	*M3/2	*	*M3/2	*	*M3/2	*	*	*M3/2	*	*	*M3/2	*	*
2FF/	.	.	00.r	.	00.r	.	(4FF/	Ex-	E-	2Fny/	-strum.	-strum.	00.r	.	.
.	.	.	.	.	.	.	4GG/)	.	.	.	.	.	.	.	.
!LO:TX:b:t=Basso solo:mod=	!	!	!	!	!	!	!	!	!	!	!	!	!	!	!
2AA/	6	.	.	.	.	.	(4AA/	-ur-	-xur-	2r	.	.	.	.	.
.	.	.	.	.	.	.	4BB-/)	.	.	.	.	.	.	.	.
!	!	!	!	!	!	!	!LO:TX:t=P:problem:kreska pseudotaktowa	!	!	!	!	!	!	!	!
2C/	.	.	.	.	.	.	2C/	-ge	-ge	2r	.	.	.	.	.
=139-	=139-	=139-	=139-	=139-	=139-	=139-	=139-	=139-	=139-	=139-	=139-	=139-	=139-	=139-	=139-
!	!	!	!	!	!	!	!	!	!	!LO:TX:a:t=3:mod=	!	!	!	!	!
1.F	.	.	.	.	.	.	2.FF/	Do-	Do-	0.r	.	.	.	.	.
.	.	.	.	.	.	.	4FF/	-mi-	-mi-	.	.	.	.	.	.
!	!	!	!	!	!	!	!LO:TX:t=P:problem:kreska pseudotaktowa	!	!	!	!	!	!	!	!
.	.	.	.	.	.	.	2FF/	-ne	-ne	.	.	.	.	.	.
=140-	=140-	=140-	=140-	=140-	=140-	=140-	=140-	=140-	=140-	=140-	=140-	=140-	=140-	=140-	=140-
*	*	*	*	*	*	*	*	*ij	*ij	*	*	*	*	*	*
2C/	.	.	.	.	.	.	(4C/	E-	E-	.	.	.	.	.	.
.	.	.	.	.	.	.	4D/)	.	.	.	.	.	.	.	.
2E\	.	.	.	.	.	.	(4E\	-xur-	-xur-	.	.	.	.	.	.
.	.	.	.	.	.	.	4Fny\)	.	.	.	.	.	.	.	.
2G\	.	.	.	.	.	.	(<4G\	-ge	-ge	.	.	.	.	.	.
.	.	.	.	.	.	.	4GG/)	.	.	.	.	.	.	.	.
=141-	=141-	=141-	=141-	=141-	=141-	=141-	=141-	=141-	=141-	=141-	=141-	=141-	=141-	=141-	=141-
1.C	.	.	.	.	.	.	2.C/	Do-	Do-	1.r	.	.	.	.	.
.	.	.	.	.	.	.	4C/	-mi-	-mi-	.	.	.	.	.	.
.	.	.	.	.	.	.	2C/	-ne	-ne	.	.	.	.	.	.
*	*	*	*	*	*	*	*	*Xij	*Xij	*	*	*	*	*	*
!LO:PB:g=original	!	!	!	!	!	!	!	!	!	!	!	!	!	!	!
=142-	=142-	=142-	=142-	=142-	=142-	=142-	=142-	=142-	=142-	=142-	=142-	=142-	=142-	=142-	=142-
*M2/2	*	*	*M2/2	*	*M2/2	*	*M2/2	*	*	*M2/2	*	*	*M2/2	*	*
*met(c)	*	*	*met(c)	*	*met(c)	*	*met(c)	*	*	*met(c)	*	*	*met(c)	*	*
*mmet(c)	*	*	*mmet(c)	*	*mmet(c)	*	*mmet(c)	*	*	*mmet(c)	*	*	*mmet(c)	*	*
!LO:TX:b:t=adagio:mod=	!	!	!	!	!	!	!	!	!	!LO:TX:a:t=12:mod=	!	!	!	!	!
2AA/	6	.	1r	.	1r	.	8r	.	.	00r	.	.	00r	.	.
.	.	.	.	.	.	.	8AA/	in	in	.	.	.	.	.	.
.	.	.	.	.	.	.	8AA/	ad-	ad-	.	.	.	.	.	.
.	.	.	.	.	.	.	8AA/	-iu-	-iu-	.	.	.	.	.	.
4BB-/	.	.	.	.	.	.	4BB-/	-to-	-to-	.	.	.	.	.	.
4GG/	.	.	.	.	.	.	8GG/	-ri-	-ri-	.	.	.	.	.	.
.	.	.	.	.	.	.	8GG/	-um	-um	.	.	.	.	.	.
*	*	*	*	*	*	*	*custos:AA	*	*	*	*	*	*	*	*
!	!	!	!	!	!	!	!LO:LB:g=original	!	!	!	!	!	!	!	!
=143-	=143-	=143-	=143-	=143-	=143-	=143-	=143-	=143-	=143-	=143-	=143-	=143-	=143-	=143-	=143-
2AA/	x 4	.	2r	.	8r	.	2AA/	no-	no-	.	.	.	.	.	.
.	- 3	.	.	.	8aa\L	.	.	.	.	.	.	.	.	.	.
.	.	.	.	.	8ee\	.	.	.	.	.	.	.	.	.	.
.	.	.	.	.	8gg\J	.	.	.	.	.	.	.	.	.	.
!	!	!	!LO:TX:b:t=adagio.:mod=	!	!	!	!	!	!	!	!	!	!	!	!
2D/	#	.	8r	.	4ffny\	.	4DD/	-stru(m)	-strum	.	.	.	.	.	.
.	.	.	8dd\L	.	.	.	.	.	.	.	.	.	.	.	.
!	!	!	!	!	!LO:TX:t=P:problem:cezura dopisana ołówkiem	!	!	!	!	!	!	!	!	!	!
.	.	.	8a\	.	4ff#X,\	.	4r	.	.	.	.	.	.	.	.
!	!	!	!LO:TX:t=P:problem:kreska pseudotaktowa	!	!	!	!	!	!	!	!	!	!	!	!
.	.	.	8cc\J	.	.	.	.	.	.	.	.	.	.	.	.
=144-	=144-	=144-	=144-	=144-	=144-	=144-	=144-	=144-	=144-	=144-	=144-	=144-	=144-	=144-	=144-
4G\	-	.	4b-X/	.	4.gg\	.	00r	.	.	.	.	.	.	.	.
!	!	!	!LO:N:acc=#	!	!	!	!	!	!	!	!	!	!	!	!
4D/	# 4	.	4bn/	.	.	.	.	.	.	.	.	.	.	.	.
.	6 3	.	.	.	8ffny\	.	.	.	.	.	.	.	.	.	.
4C/	x -	.	4.cc\	.	4ee-X\	.	.	.	.	.	.	.	.	.	.
!	!	!	!	!	!LO:TX:t=P:problem:cezura dopisana ołówkiem	!	!	!	!	!	!	!	!	!	!
!	!	!	!	!	!LO:N:acc=#	!	!	!	!	!	!	!	!	!	!
4GG/	# 6	.	.	.	4een,\	.	.	.	.	.	.	.	.	.	.
!	!	!	!LO:TX:t=P:problem:kreska pseudotaktowa	!	!	!	!	!	!	!	!	!	!	!	!
.	.	.	8b/	.	.	.	.	.	.	.	.	.	.	.	.
=145-	=145-	=145-	=145-	=145-	=145-	=145-	=145-	=145-	=145-	=145-	=145-	=145-	=145-	=145-	=145-
2FF/	5	.	8a/L	.	[2ff\	.	.	.	.	.	.	.	.	.	.
.	.	.	8a/J	.	.	.	.	.	.	.	.	.	.	.	.
.	6	.	8dd\L	.	.	.	.	.	.	.	.	.	.	.	.
.	.	.	8cc\J	.	.	.	.	.	.	.	.	.	.	.	.
!	!	!	!LO:N:acc=#	!	!	!	!	!	!	!	!	!	!	!	!
4GG/	7	.	4bn/	.	8ff\L]	.	.	.	.	.	.	.	.	.	.
.	.	.	.	.	8ee-X\J	.	.	.	.	.	.	.	.	.	.
!	!	!	!	!	!LO:TX:t=P:problem:cezura dopisana ołówkiem	!	!	!	!	!	!	!	!	!	!
4AA-X/	6	.	2cc\	.	4ee-,\	.	.	.	.	.	.	.	.	.	.
=146-	=146-	=146-	=146-	=146-	=146-	=146-	=146-	=146-	=146-	=146-	=146-	=146-	=146-	=146-	=146-
4FF/	.	.	.	.	4.dd\	.	.	.	.	00r	.	.	00r	.	.
!	!	!	!LO:TX:b:t=P:problem:# below	!	!	!	!	!	!	!	!	!	!	!	!
!	!	!	!LO:N:acc=#	!	!	!	!	!	!	!	!	!	!	!	!
4GG/	.	.	4bn/	.	.	.	.	.	.	.	.	.	.	.	.
.	.	.	.	.	8dd\	.	.	.	.	.	.	.	.	.	.
2C/	#	.	8cc\	.	8eeny\L	.	.	.	.	.	.	.	.	.	.
.	.	.	4ee\	.	8gg\	.	.	.	.	.	.	.	.	.	.
.	.	.	.	.	8ccc\	.	.	.	.	.	.	.	.	.	.
!	!	!	!LO:TX:t=P:problem:kreska pseudotaktowa	!	!LO:TX:t=P:problem:cezura dopisana ołówkiem	!	!	!	!	!	!	!	!	!	!
.	.	.	8ee\	.	8bb-,\J	.	.	.	.	.	.	.	.	.	.
=147-	=147-	=147-	=147-	=147-	=147-	=147-	=147-	=147-	=147-	=147-	=147-	=147-	=147-	=147-	=147-
!	!	!	!LO:TX:t=P:problem:mixed beam	!	!	!	!	!	!	!	!	!	!	!	!
4F\	.	.	8ff\L	.	4aa\	.	.	.	.	.	.	.	.	.	.
.	.	.	8a/J	.	.	.	.	.	.	.	.	.	.	.	.
4F#X\	.	.	4a/	.	8dd\L	.	.	.	.	.	.	.	.	.	.
.	.	.	.	.	8cc\J	.	.	.	.	.	.	.	.	.	.
!	!	!	!	!	!LO:N:acc=#	!	!	!	!	!	!	!	!	!	!
4G\	#	.	4d/	.	8bn\L	.	.	.	.	.	.	.	.	.	.
.	.	.	.	.	8dd\	.	.	.	.	.	.	.	.	.	.
!	!	!	!LO:N:acc=#	!	!	!	!	!	!	!	!	!	!	!	!
4GG/	.	.	4bn/	.	8gg\	.	.	.	.	.	.	.	.	.	.
!	!	!	!	!	!LO:TX:t=P:problem:cezura dopisana ołówkiem	!	!	!	!	!	!	!	!	!	!
.	.	.	.	.	8ff,\J	.	.	.	.	.	.	.	.	.	.
=148-	=148-	=148-	=148-	=148-	=148-	=148-	=148-	=148-	=148-	=148-	=148-	=148-	=148-	=148-	=148-
4C/	.	.	4.cc\	.	8ee\L	.	00r	.	.	.	.	.	.	.	.
.	.	.	.	.	8cc\J	.	.	.	.	.	.	.	.	.	.
4AAny/	6	.	.	.	2ff\	.	.	.	.	.	.	.	.	.	.
.	.	.	8cc\	.	.	.	.	.	.	.	.	.	.	.	.
4BB-/	.	.	4b-y/	.	.	.	.	.	.	.	.	.	.	.	.
!	!	!	!	!	!LO:TX:t=P:problem:cezura dopisana ołówkiem	!	!	!	!	!	!	!	!	!	!
4C/	.	.	4g/	.	4ee,\	.	.	.	.	.	.	.	.	.	.
=149-	=149-	=149-	=149-	=149-	=149-	=149-	=149-	=149-	=149-	=149-	=149-	=149-	=149-	=149-	=149-
4.Fny\	5	.	8a\L	.	4ff\	.	.	.	.	.	.	.	.	.	.
.	.	.	8cc\	.	.	.	.	.	.	.	.	.	.	.	.
.	.	.	8dd\	.	4r	.	.	.	.	.	.	.	.	.	.
8F\	6	.	8a\J	.	.	.	.	.	.	.	.	.	.	.	.
*	*	*	*custos:b	*	*	*	*	*	*	*	*	*	*	*	*
!	!	!	!LO:LB:g=original	!	!	!	!	!	!	!	!	!	!	!	!
8G\L	.	.	8b-/L	.	4r	.	.	.	.	.	.	.	.	.	.
8F\	.	.	8a/	.	.	.	.	.	.	.	.	.	.	.	.
8G\	.	.	8b-/	.	8r	.	.	.	.	.	.	.	.	.	.
!	!	!	!	!	!LO:TX:t=P:problem:cezura dopisana ołówkiem	!	!	!	!	!	!	!	!	!	!
!	!	!	!LO:TX:t=P:problem:kreska pseudotaktowa	!	!	!	!	!	!	!	!	!	!	!	!
8D\J	.	.	8f/J	.	8ff,\	.	.	.	.	.	.	.	.	.	.
*	*	*	*	*	*custos:gg	*	*	*	*	*	*	*	*	*	*
!	!	!	!	!	!LO:LB:g=original	!	!	!	!	!	!	!	!	!	!
=150-	=150-	=150-	=150-	=150-	=150-	=150-	=150-	=150-	=150-	=150-	=150-	=150-	=150-	=150-	=150-
!	!	!	!LO:TX:a:t=P:problem:♭ above	!	!	!	!	!	!	!	!	!	!	!	!
4E-X\	.	.	8e-/L	.	8gg\L	.	.	.	.	00r	.	.	00r	.	.
.	.	.	8g/	.	8cc\J	.	.	.	.	.	.	.	.	.	.
!LO:TX:a:t=P:problem:# above	!	!	!	!	!	!	!	!	!	!	!	!	!	!	!
!LO:N:acc=#	!	!	!	!	!	!	!	!	!	!	!	!	!	!	!
4EEn/	.	.	8g/	.	8.cc\L	.	.	.	.	.	.	.	.	.	.
.	.	.	8cc/J	.	.	.	.	.	.	.	.	.	.	.	.
.	.	.	.	.	16b-y\Jk	.	.	.	.	.	.	.	.	.	.
2FF/	5	.	4cc\	.	4a/	.	.	.	.	.	.	.	.	.	.
!	!	!	!	!	!LO:TX:t=P:problem:cezura dopisana ołówkiem	!	!	!	!	!	!	!	!	!	!
.	6	.	2dd\	.	4ff,\	.	.	.	.	.	.	.	.	.	.
=151-	=151-	=151-	=151-	=151-	=151-	=151-	=151-	=151-	=151-	=151-	=151-	=151-	=151-	=151-	=151-
4GG/	6 5	.	.	.	4.ee-X\	.	.	.	.	.	.	.	.	.	.
4AA/	.	.	2cc\	.	.	.	.	.	.	.	.	.	.	.	.
.	.	.	.	.	8ee-\	.	.	.	.	.	.	.	.	.	.
4BB-/	9	.	.	.	4.dd\	.	.	.	.	.	.	.	.	.	.
4D/	6	.	2b-/	.	.	.	.	.	.	.	.	.	.	.	.
!	!	!	!	!	!LO:TX:t=P:problem:cezura dopisana ołówkiem	!	!	!	!	!	!	!	!	!	!
.	.	.	.	.	8dd,\	.	.	.	.	.	.	.	.	.	.
=152-	=152-	=152-	=152-	=152-	=152-	=152-	=152-	=152-	=152-	=152-	=152-	=152-	=152-	=152-	=152-
!	!	!	!	!	!	!	!	!	!	!LO:TX:b:t=Si Replica\nalla +	!	!	!LO:TX:b:t=Si replica alla +	!	!
4E-X\	6 5	.	.	.	4.cc\	.	0r	.	.	.	.	.	.	.	.
!LO:N:acc=#	!	!	!	!	!	!	!	!	!	!	!	!	!	!	!
4En\	.	.	4b-/	.	.	.	.	.	.	.	.	.	.	.	.
.	.	.	.	.	8cc\	.	.	.	.	.	.	.	.	.	.
!	!	!	!	!	!LO:TX:t=P:problem:cezura dopisana ołówkiem	!	!	!	!	!	!	!	!	!	!
2F\	5 4	.	4.b-/	.	2cc,\	.	.	.	.	.	.	.	.	.	.
.	x 3	.	8a/	.	.	.	.	.	.	.	.	.	.	.	.
=153-	=153-	=153-	=153-	=153-	=153-	=153-	=153-	=153-	=153-	=153-	=153-	=153-	=153-	=153-	=153-
!LO:TX:b:t=Si Replica alla Segno \n +:mod=	!	!	!LO:TX:b:t=Si Replica alla +:mod=	!	!LO:TX:b:t=Si Replica alla +:mod=	!	!LO:TX:b:t=Exurge ut Supra +	!	!	!	!	!	!	!	!
1BB-	.	.	1b-	.	1dd	.	.	.	.	.	.	.	.	.	.
==	==	==	==	==	==	==	==	==	==	==	==	==	==	==	==
*-	*-	*-	*-	*-	*-	*-	*-	*-	*-	*-	*-	*-	*-	*-	*-
!!!system-decoration: [(s1,s2,s3)][(s4,s5)]s6
!!!RDF**kern: < = below
!!!RDF**kern: l = terminal long
!!!filter-modern: sic -sq | shed -e "s/TX(.*):t=P:/tx$1:t=P:/LG" | shed -k -e "s/[<>]//g" | shed -e "s/yy//" |  shed -k -e "s/[<>]//g" | shed -e "s/^(\d+[\/\\]right)/$1yy/I;s/^(\d+[\/\\]left)/$1yy/I" | shed -k -e "s/LO:N:acc/LO:n:acc:/L" | shed -e "s/(LO:DY.*):t=(.*$)/$1:T=$2/L; s/LO:DY(.*)(:a:)(.*)/LO:dy:$1$2$3/L; s/LO:DY(.*)(:b:)(.*)/LO:dy:$1$2$3/L; s/LO:DY(.*)(:[ab])$/LO:dy:$1$2/L; s/LO:DY(.*)(:rj:)(.*)/LO:dy:$1$2$3/L" | shed -e "s/LO:DY:(a|b|rj)/LO:dy:$1/L" | shed -e "s/^custos:/Xcustos:/I" | shed -k -e "s/#X/#/g" | shed -k -e "s/LO:N:vis/LO:n:vis:/L" | shed -e "s/:rj/:RJ/L" | shed -e "s/LO:DY:(a|b|rj)/LO:dy:$1/L" | shed -e "s/-//B" | modori -m | tie -s | autostem -r | humtr -p
!!!ENC: Andrzej Gręziak
!!!END: 2021-01-27
!!!EED: Marta Lawrence
!!!EEV: 2022-02-20
!!!ENC-modern: Andrzej Borzym
!!!END-modern: 2022-11-13
